(G-CODE GENERATED BY FLATCAM v8.994 - www.flatcam.org - Version Date: 2020/11/7)

(Name: trigger_cable-F_Cu.gbr_iso_combined_cnc)
(Type: G-code from Geometry)
(Units: MM)

(Created on Tuesday, 22 August 2023 at 14:51)

(This preprocessor is the default preprocessor used by FlatCAM.)
(It is made to work with MACH3 compatible motion controllers.)

(TOOL DIAMETER: 0.2268 mm)
(Feedrate_XY: 120.0 mm/min)
(Feedrate_Z: 60.0 mm/min)
(Feedrate rapids 1500.0 mm/min)

(Z_Cut: -0.05 mm)
(Z_Move: 2.0 mm)
(Z Start: None mm)
(Z End: 15.0 mm)
(X,Y End: None mm)
(Steps per circle: 64)
(Preprocessor Geometry: default)

(X range:    4.8866 ...   63.1134  mm)
(Y range:    1.8866 ...   58.1134  mm)

(Spindle Speed: 0.0 RPM)
G21
G90
G94

G01 F120.00

M5
G00 Z15.0000
G00 X0.0000 Y0.0000
T1
M6    
(MSG, Change to Tool Dia = 0.2268)
M0
G00 Z15.0000

M03
G01 F120.00
G00 X9.4340 Y5.7076
G01 F60.00
G01 Z-0.0500
G01 F120.00
G01 X9.6412 Y5.9148
G01 X9.6163 Y5.9849
G01 X9.5945 Y6.0718
G01 X9.5813 Y6.1605
G01 X9.5769 Y6.2500
G01 X9.5813 Y6.3395
G01 X9.5945 Y6.4282
G01 X9.6163 Y6.5151
G01 X9.6412 Y6.5852
G01 X9.4340 Y6.7924
G01 X9.3710 Y6.6574
G01 X9.3173 Y6.4568
G01 X9.2992 Y6.2500
G01 X9.3173 Y6.0432
G01 X9.3710 Y5.8426
G01 X9.4340 Y5.7076
G00 Z2.0000
G00 X9.9479 Y5.1937
G01 F60.00
G01 Z-0.0500
G01 F120.00
G01 X10.0829 Y5.1307
G01 X10.2835 Y5.0770
G01 X10.4903 Y5.0589
G01 X10.6972 Y5.0770
G01 X10.8977 Y5.1307
G01 X11.0327 Y5.1937
G01 X10.8255 Y5.4009
G01 X10.7555 Y5.3759
G01 X10.6685 Y5.3542
G01 X10.5799 Y5.3410
G01 X10.4903 Y5.3366
G01 X10.4008 Y5.3410
G01 X10.3121 Y5.3542
G01 X10.2252 Y5.3759
G01 X10.1551 Y5.4009
G01 X9.9479 Y5.1937
G00 Z2.0000
G00 X11.3395 Y6.5852
G01 F60.00
G01 Z-0.0500
G01 F120.00
G01 X11.3644 Y6.5151
G01 X11.3862 Y6.4282
G01 X11.3993 Y6.3395
G01 X11.4037 Y6.2500
G01 X11.3993 Y6.1605
G01 X11.3862 Y6.0718
G01 X11.3644 Y5.9849
G01 X11.3395 Y5.9148
G01 X11.5467 Y5.7076
G01 X11.6096 Y5.8426
G01 X11.6634 Y6.0432
G01 X11.6815 Y6.2500
G01 X11.6634 Y6.4568
G01 X11.6096 Y6.6574
G01 X11.5467 Y6.7924
G01 X11.3395 Y6.5852
G00 Z2.0000
G00 X12.1171 Y7.6406
G01 F60.00
G01 Z-0.0500
G01 F120.00
G01 X12.1171 Y7.6294
G01 X12.1213 Y7.5455
G01 X12.1345 Y7.4568
G01 X12.1563 Y7.3699
G01 X12.1865 Y7.2855
G01 X12.2248 Y7.2044
G01 X12.2709 Y7.1275
G01 X12.3243 Y7.0555
G01 X12.3845 Y6.9891
G01 X12.4509 Y6.9289
G01 X12.5229 Y6.8755
G01 X12.5998 Y6.8295
G01 X12.6808 Y6.7911
G01 X12.7652 Y6.7609
G01 X12.8521 Y6.7392
G01 X12.9408 Y6.7260
G01 X13.0303 Y6.7216
G01 X13.1199 Y6.7260
G01 X13.2085 Y6.7392
G01 X13.2955 Y6.7609
G01 X13.3799 Y6.7911
G01 X13.4609 Y6.8295
G01 X13.5378 Y6.8755
G01 X13.6098 Y6.9289
G01 X13.6762 Y6.9891
G01 X13.7364 Y7.0555
G01 X13.7898 Y7.1275
G01 X13.8359 Y7.2044
G01 X13.8742 Y7.2855
G01 X13.9044 Y7.3699
G01 X13.9262 Y7.4568
G01 X13.9393 Y7.5455
G01 X13.9437 Y7.6350
G01 X13.9393 Y7.7245
G01 X13.9262 Y7.8132
G01 X13.9044 Y7.9001
G01 X13.8742 Y7.9845
G01 X13.8359 Y8.0656
G01 X13.7898 Y8.1425
G01 X13.7364 Y8.2145
G01 X13.6762 Y8.2809
G01 X13.6098 Y8.3411
G01 X13.5378 Y8.3945
G01 X13.4609 Y8.4405
G01 X13.3799 Y8.4789
G01 X13.2955 Y8.5091
G01 X13.2085 Y8.5308
G01 X13.1199 Y8.5440
G01 X13.0303 Y8.5484
G01 X12.9408 Y8.5440
G01 X12.8521 Y8.5308
G01 X12.7652 Y8.5091
G01 X12.6808 Y8.4789
G01 X12.5998 Y8.4405
G01 X12.5229 Y8.3945
G01 X12.4509 Y8.3411
G01 X12.3845 Y8.2809
G01 X12.3243 Y8.2145
G01 X12.2709 Y8.1425
G01 X12.2248 Y8.0656
G01 X12.1865 Y7.9845
G01 X12.1563 Y7.9001
G01 X12.1345 Y7.8132
G01 X12.1213 Y7.7245
G01 X12.1171 Y7.6406
G00 Z2.0000
G00 X12.1171 Y4.8706
G01 F60.00
G01 Z-0.0500
G01 F120.00
G01 X12.1171 Y4.8594
G01 X12.1213 Y4.7755
G01 X12.1345 Y4.6868
G01 X12.1563 Y4.5999
G01 X12.1865 Y4.5155
G01 X12.2248 Y4.4344
G01 X12.2709 Y4.3575
G01 X12.3243 Y4.2855
G01 X12.3845 Y4.2191
G01 X12.4509 Y4.1589
G01 X12.5229 Y4.1055
G01 X12.5998 Y4.0595
G01 X12.6808 Y4.0211
G01 X12.7652 Y3.9909
G01 X12.8521 Y3.9692
G01 X12.9408 Y3.9560
G01 X13.0303 Y3.9516
G01 X13.1199 Y3.9560
G01 X13.2085 Y3.9692
G01 X13.2955 Y3.9909
G01 X13.3799 Y4.0211
G01 X13.4609 Y4.0595
G01 X13.5378 Y4.1055
G01 X13.6098 Y4.1589
G01 X13.6762 Y4.2191
G01 X13.7364 Y4.2855
G01 X13.7898 Y4.3575
G01 X13.8359 Y4.4344
G01 X13.8742 Y4.5155
G01 X13.9044 Y4.5999
G01 X13.9262 Y4.6868
G01 X13.9393 Y4.7755
G01 X13.9437 Y4.8650
G01 X13.9393 Y4.9545
G01 X13.9262 Y5.0432
G01 X13.9044 Y5.1301
G01 X13.8742 Y5.2145
G01 X13.8359 Y5.2956
G01 X13.7898 Y5.3725
G01 X13.7364 Y5.4445
G01 X13.6762 Y5.5109
G01 X13.6098 Y5.5711
G01 X13.5378 Y5.6245
G01 X13.4609 Y5.6705
G01 X13.3799 Y5.7089
G01 X13.2955 Y5.7391
G01 X13.2085 Y5.7608
G01 X13.1199 Y5.7740
G01 X13.0303 Y5.7784
G01 X12.9408 Y5.7740
G01 X12.8521 Y5.7608
G01 X12.7652 Y5.7391
G01 X12.6808 Y5.7089
G01 X12.5998 Y5.6705
G01 X12.5229 Y5.6245
G01 X12.4509 Y5.5711
G01 X12.3845 Y5.5109
G01 X12.3243 Y5.4445
G01 X12.2709 Y5.3725
G01 X12.2248 Y5.2956
G01 X12.1865 Y5.2145
G01 X12.1563 Y5.1301
G01 X12.1345 Y5.0432
G01 X12.1213 Y4.9545
G01 X12.1171 Y4.8706
G00 Z2.0000
G00 X9.5771 Y9.0256
G01 F60.00
G01 Z-0.0500
G01 F120.00
G01 X9.5771 Y9.0144
G01 X9.5813 Y8.9305
G01 X9.5945 Y8.8418
G01 X9.6163 Y8.7549
G01 X9.6465 Y8.6705
G01 X9.6848 Y8.5894
G01 X9.7309 Y8.5125
G01 X9.7843 Y8.4405
G01 X9.8445 Y8.3741
G01 X9.9109 Y8.3139
G01 X9.9829 Y8.2605
G01 X10.0598 Y8.2145
G01 X10.1408 Y8.1761
G01 X10.2252 Y8.1459
G01 X10.3121 Y8.1242
G01 X10.4008 Y8.1110
G01 X10.4903 Y8.1066
G01 X10.5799 Y8.1110
G01 X10.6685 Y8.1242
G01 X10.7555 Y8.1459
G01 X10.8399 Y8.1761
G01 X10.9209 Y8.2145
G01 X10.9978 Y8.2605
G01 X11.0698 Y8.3139
G01 X11.1362 Y8.3741
G01 X11.1964 Y8.4405
G01 X11.2498 Y8.5125
G01 X11.2959 Y8.5894
G01 X11.3342 Y8.6705
G01 X11.3644 Y8.7549
G01 X11.3862 Y8.8418
G01 X11.3993 Y8.9305
G01 X11.4037 Y9.0200
G01 X11.3993 Y9.1095
G01 X11.3862 Y9.1982
G01 X11.3644 Y9.2851
G01 X11.3342 Y9.3695
G01 X11.2959 Y9.4506
G01 X11.2498 Y9.5275
G01 X11.1964 Y9.5995
G01 X11.1362 Y9.6659
G01 X11.0698 Y9.7261
G01 X10.9978 Y9.7795
G01 X10.9209 Y9.8255
G01 X10.8399 Y9.8639
G01 X10.7555 Y9.8941
G01 X10.6685 Y9.9158
G01 X10.5799 Y9.9290
G01 X10.4903 Y9.9334
G01 X10.4008 Y9.9290
G01 X10.3121 Y9.9158
G01 X10.2252 Y9.8941
G01 X10.1408 Y9.8639
G01 X10.0598 Y9.8255
G01 X9.9829 Y9.7795
G01 X9.9109 Y9.7261
G01 X9.8445 Y9.6659
G01 X9.7843 Y9.5995
G01 X9.7309 Y9.5275
G01 X9.6848 Y9.4506
G01 X9.6465 Y9.3695
G01 X9.6163 Y9.2851
G01 X9.5945 Y9.1982
G01 X9.5813 Y9.1095
G01 X9.5771 Y9.0256
G00 Z2.0000
G00 X9.5771 Y11.7956
G01 F60.00
G01 Z-0.0500
G01 F120.00
G01 X9.5771 Y11.7844
G01 X9.5813 Y11.7005
G01 X9.5945 Y11.6118
G01 X9.6163 Y11.5249
G01 X9.6465 Y11.4405
G01 X9.6848 Y11.3594
G01 X9.7309 Y11.2825
G01 X9.7843 Y11.2105
G01 X9.8445 Y11.1441
G01 X9.9109 Y11.0839
G01 X9.9829 Y11.0305
G01 X10.0598 Y10.9845
G01 X10.1408 Y10.9461
G01 X10.2252 Y10.9159
G01 X10.3121 Y10.8942
G01 X10.4008 Y10.8810
G01 X10.4903 Y10.8766
G01 X10.5799 Y10.8810
G01 X10.6685 Y10.8942
G01 X10.7555 Y10.9159
G01 X10.8399 Y10.9461
G01 X10.9209 Y10.9845
G01 X10.9978 Y11.0305
G01 X11.0698 Y11.0839
G01 X11.1362 Y11.1441
G01 X11.1964 Y11.2105
G01 X11.2498 Y11.2825
G01 X11.2959 Y11.3594
G01 X11.3342 Y11.4405
G01 X11.3644 Y11.5249
G01 X11.3862 Y11.6118
G01 X11.3993 Y11.7005
G01 X11.4037 Y11.7900
G01 X11.3993 Y11.8795
G01 X11.3862 Y11.9682
G01 X11.3644 Y12.0551
G01 X11.3342 Y12.1395
G01 X11.2959 Y12.2206
G01 X11.2498 Y12.2975
G01 X11.1964 Y12.3695
G01 X11.1362 Y12.4359
G01 X11.0698 Y12.4961
G01 X10.9978 Y12.5495
G01 X10.9209 Y12.5955
G01 X10.8399 Y12.6339
G01 X10.7555 Y12.6641
G01 X10.6685 Y12.6858
G01 X10.5799 Y12.6990
G01 X10.4903 Y12.7034
G01 X10.4008 Y12.6990
G01 X10.3121 Y12.6858
G01 X10.2252 Y12.6641
G01 X10.1408 Y12.6339
G01 X10.0598 Y12.5955
G01 X9.9829 Y12.5495
G01 X9.9109 Y12.4961
G01 X9.8445 Y12.4359
G01 X9.7843 Y12.3695
G01 X9.7309 Y12.2975
G01 X9.6848 Y12.2206
G01 X9.6465 Y12.1395
G01 X9.6163 Y12.0551
G01 X9.5945 Y11.9682
G01 X9.5813 Y11.8795
G01 X9.5771 Y11.7956
G00 Z2.0000
G00 X11.9740 Y12.6326
G01 F60.00
G01 Z-0.0500
G01 F120.00
G01 X12.1812 Y12.8398
G01 X12.1563 Y12.9099
G01 X12.1345 Y12.9968
G01 X12.1213 Y13.0855
G01 X12.1169 Y13.1750
G01 X12.1213 Y13.2645
G01 X12.1345 Y13.3532
G01 X12.1563 Y13.4401
G01 X12.1812 Y13.5102
G01 X11.9740 Y13.7174
G01 X11.9110 Y13.5824
G01 X11.8573 Y13.3818
G01 X11.8392 Y13.1750
G01 X11.8573 Y12.9682
G01 X11.9110 Y12.7676
G01 X11.9740 Y12.6326
G00 Z2.0000
G00 X12.4879 Y12.1187
G01 F60.00
G01 Z-0.0500
G01 F120.00
G01 X12.6229 Y12.0557
G01 X12.7578 Y12.0196
G01 X12.7706 Y12.0153
G01 X12.8181 Y11.9936
G01 X12.8303 Y11.9863
G01 X12.8415 Y11.9775
G01 X12.8476 Y11.9715
G01 X12.8533 Y11.9651
G01 X12.9013 Y11.9068
G01 X12.9060 Y11.8999
G01 X12.9103 Y11.8926
G01 X12.9140 Y11.8850
G01 X12.9171 Y11.8772
G01 X12.9204 Y11.8664
G01 X12.9226 Y11.8553
G01 X12.9318 Y11.7776
G01 X12.9320 Y11.7663
G01 X12.9311 Y11.7551
G01 X12.9291 Y11.7440
G01 X12.9260 Y11.7332
G01 X12.9206 Y11.7201
G01 X12.8901 Y11.6573
G01 X12.8847 Y11.6474
G01 X12.8783 Y11.6381
G01 X12.8691 Y11.6275
G01 X12.8587 Y11.6181
G01 X12.8495 Y11.6115
G01 X12.7851 Y11.5723
G01 X12.7731 Y11.5662
G01 X12.7655 Y11.5633
G01 X12.7578 Y11.5609
G01 X12.6228 Y11.5248
G01 X12.4345 Y11.4370
G01 X12.2644 Y11.3178
G01 X12.1175 Y11.1710
G01 X11.9983 Y11.0008
G01 X11.9106 Y10.8126
G01 X11.8568 Y10.6119
G01 X11.8387 Y10.4050
G01 X11.8568 Y10.1981
G01 X11.9106 Y9.9974
G01 X11.9983 Y9.8092
G01 X12.1175 Y9.6390
G01 X12.2644 Y9.4922
G01 X12.4345 Y9.3730
G01 X12.6228 Y9.2852
G01 X12.7568 Y9.2493
G01 X12.7646 Y9.2469
G01 X12.7746 Y9.2429
G01 X12.8171 Y9.2233
G01 X12.8269 Y9.2176
G01 X12.8362 Y9.2109
G01 X12.8426 Y9.2053
G01 X12.8505 Y9.1971
G01 X12.8986 Y9.1388
G01 X12.9035 Y9.1320
G01 X12.9080 Y9.1248
G01 X12.9142 Y9.1122
G01 X12.9187 Y9.0988
G01 X12.9212 Y9.0878
G01 X12.9303 Y9.0129
G01 X12.9309 Y9.0045
G01 X12.9310 Y8.9960
G01 X12.9297 Y8.9820
G01 X12.9267 Y8.9683
G01 X12.9220 Y8.9550
G01 X12.8865 Y8.8820
G01 X12.8806 Y8.8724
G01 X12.8720 Y8.8614
G01 X12.8641 Y8.8533
G01 X12.8532 Y8.8444
G01 X12.8461 Y8.8398
G01 X12.7865 Y8.8034
G01 X12.7794 Y8.7994
G01 X12.7721 Y8.7960
G01 X12.7646 Y8.7931
G01 X12.7568 Y8.7907
G01 X12.6228 Y8.7548
G01 X12.4345 Y8.6670
G01 X12.2644 Y8.5478
G01 X12.1175 Y8.4010
G01 X11.9983 Y8.2308
G01 X11.9106 Y8.0426
G01 X11.8568 Y7.8419
G01 X11.8387 Y7.6350
G01 X11.8568 Y7.4281
G01 X11.9106 Y7.2274
G01 X11.9983 Y7.0392
G01 X12.1175 Y6.8690
G01 X12.2644 Y6.7222
G01 X12.4345 Y6.6030
G01 X12.6228 Y6.5152
G01 X12.7568 Y6.4793
G01 X12.7646 Y6.4769
G01 X12.7746 Y6.4729
G01 X12.8171 Y6.4533
G01 X12.8269 Y6.4476
G01 X12.8362 Y6.4409
G01 X12.8446 Y6.4333
G01 X12.8505 Y6.4271
G01 X12.8986 Y6.3688
G01 X12.9066 Y6.3572
G01 X12.9130 Y6.3447
G01 X12.9179 Y6.3315
G01 X12.9201 Y6.3234
G01 X12.9216 Y6.3151
G01 X12.9306 Y6.2401
G01 X12.9311 Y6.2289
G01 X12.9307 Y6.2204
G01 X12.9297 Y6.2120
G01 X12.9281 Y6.2037
G01 X12.9259 Y6.1956
G01 X12.9231 Y6.1876
G01 X12.9197 Y6.1799
G01 X12.8879 Y6.1145
G01 X12.8822 Y6.1048
G01 X12.8738 Y6.0935
G01 X12.8641 Y6.0833
G01 X12.8532 Y6.0744
G01 X12.8461 Y6.0698
G01 X12.7865 Y6.0334
G01 X12.7794 Y6.0294
G01 X12.7721 Y6.0260
G01 X12.7646 Y6.0231
G01 X12.7568 Y6.0207
G01 X12.6228 Y5.9848
G01 X12.4345 Y5.8970
G01 X12.2644 Y5.7778
G01 X12.1175 Y5.6310
G01 X11.9983 Y5.4608
G01 X11.9106 Y5.2726
G01 X11.8568 Y5.0719
G01 X11.8387 Y4.8650
G01 X11.8568 Y4.6581
G01 X11.9106 Y4.4574
G01 X11.9983 Y4.2692
G01 X12.1175 Y4.0990
G01 X12.2644 Y3.9522
G01 X12.4345 Y3.8330
G01 X12.6228 Y3.7452
G01 X12.8234 Y3.6915
G01 X13.0303 Y3.6734
G01 X13.2373 Y3.6915
G01 X13.4379 Y3.7452
G01 X13.6261 Y3.8330
G01 X13.7963 Y3.9522
G01 X13.9432 Y4.0990
G01 X14.0623 Y4.2692
G01 X14.1501 Y4.4574
G01 X14.2039 Y4.6581
G01 X14.2220 Y4.8650
G01 X14.2039 Y5.0719
G01 X14.1501 Y5.2726
G01 X14.0623 Y5.4608
G01 X13.9432 Y5.6310
G01 X13.7963 Y5.7778
G01 X13.6261 Y5.8970
G01 X13.4379 Y5.9848
G01 X13.3038 Y6.0207
G01 X13.2961 Y6.0231
G01 X13.2861 Y6.0271
G01 X13.2436 Y6.0467
G01 X13.2337 Y6.0524
G01 X13.2223 Y6.0609
G01 X13.2160 Y6.0667
G01 X13.2102 Y6.0729
G01 X13.1621 Y6.1312
G01 X13.1541 Y6.1428
G01 X13.1476 Y6.1553
G01 X13.1445 Y6.1631
G01 X13.1419 Y6.1712
G01 X13.1391 Y6.1849
G01 X13.1304 Y6.2571
G01 X13.1296 Y6.2711
G01 X13.1300 Y6.2796
G01 X13.1314 Y6.2908
G01 X13.1332 Y6.2990
G01 X13.1366 Y6.3098
G01 X13.1410 Y6.3201
G01 X13.1728 Y6.3855
G01 X13.1800 Y6.3976
G01 X13.1887 Y6.4086
G01 X13.1987 Y6.4186
G01 X13.2098 Y6.4272
G01 X13.2742 Y6.4666
G01 X13.2812 Y6.4706
G01 X13.2886 Y6.4740
G01 X13.2961 Y6.4769
G01 X13.3038 Y6.4793
G01 X13.4379 Y6.5152
G01 X13.6261 Y6.6030
G01 X13.7963 Y6.7222
G01 X13.9432 Y6.8690
G01 X14.0623 Y7.0392
G01 X14.1501 Y7.2274
G01 X14.2039 Y7.4281
G01 X14.2220 Y7.6350
G01 X14.2039 Y7.8419
G01 X14.1501 Y8.0426
G01 X14.0623 Y8.2308
G01 X13.9432 Y8.4010
G01 X13.7963 Y8.5478
G01 X13.6261 Y8.6670
G01 X13.4379 Y8.7548
G01 X13.3038 Y8.7907
G01 X13.2961 Y8.7931
G01 X13.2861 Y8.7971
G01 X13.2461 Y8.8154
G01 X13.2361 Y8.8209
G01 X13.2268 Y8.8273
G01 X13.2181 Y8.8347
G01 X13.2102 Y8.8429
G01 X13.1639 Y8.8990
G01 X13.1556 Y8.9104
G01 X13.1513 Y8.9177
G01 X13.1476 Y8.9253
G01 X13.1445 Y8.9331
G01 X13.1419 Y8.9412
G01 X13.1391 Y8.9549
G01 X13.1304 Y9.0271
G01 X13.1296 Y9.0411
G01 X13.1302 Y9.0524
G01 X13.1314 Y9.0608
G01 X13.1332 Y9.0690
G01 X13.1366 Y9.0798
G01 X13.1410 Y9.0901
G01 X13.1728 Y9.1555
G01 X13.1800 Y9.1676
G01 X13.1887 Y9.1786
G01 X13.1987 Y9.1886
G01 X13.2075 Y9.1956
G01 X13.2145 Y9.2002
G01 X13.2742 Y9.2366
G01 X13.2812 Y9.2406
G01 X13.2886 Y9.2440
G01 X13.2961 Y9.2469
G01 X13.3038 Y9.2493
G01 X13.4379 Y9.2852
G01 X13.6261 Y9.3730
G01 X13.7963 Y9.4922
G01 X13.9432 Y9.6390
G01 X14.0623 Y9.8092
G01 X14.1501 Y9.9974
G01 X14.2039 Y10.1981
G01 X14.2220 Y10.4050
G01 X14.2039 Y10.6119
G01 X14.1501 Y10.8126
G01 X14.0623 Y11.0008
G01 X13.9432 Y11.1710
G01 X13.7963 Y11.3178
G01 X13.6261 Y11.4370
G01 X13.4379 Y11.5248
G01 X13.2977 Y11.5625
G01 X13.2851 Y11.5673
G01 X13.2477 Y11.5844
G01 X13.2401 Y11.5883
G01 X13.2304 Y11.5943
G01 X13.2235 Y11.5994
G01 X13.2151 Y11.6070
G01 X13.2092 Y11.6132
G01 X13.1594 Y11.6737
G01 X13.1517 Y11.6855
G01 X13.1467 Y11.6955
G01 X13.1418 Y11.7087
G01 X13.1385 Y11.7224
G01 X13.1294 Y11.7974
G01 X13.1288 Y11.8058
G01 X13.1287 Y11.8142
G01 X13.1293 Y11.8227
G01 X13.1305 Y11.8310
G01 X13.1338 Y11.8447
G01 X13.1377 Y11.8552
G01 X13.1718 Y11.9257
G01 X13.1760 Y11.9331
G01 X13.1807 Y11.9401
G01 X13.1859 Y11.9468
G01 X13.1936 Y11.9550
G01 X13.2020 Y11.9624
G01 X13.2112 Y11.9690
G01 X13.2755 Y12.0082
G01 X13.2876 Y12.0143
G01 X13.2951 Y12.0172
G01 X13.3029 Y12.0196
G01 X13.4377 Y12.0557
G01 X13.5727 Y12.1187
G01 X13.3655 Y12.3259
G01 X13.2955 Y12.3009
G01 X13.2085 Y12.2792
G01 X13.1199 Y12.2660
G01 X13.0303 Y12.2616
G01 X12.9408 Y12.2660
G01 X12.8521 Y12.2792
G01 X12.7652 Y12.3009
G01 X12.6951 Y12.3259
G01 X12.4879 Y12.1187
G00 Z2.0000
G00 X13.8795 Y12.8398
G01 F60.00
G01 Z-0.0500
G01 F120.00
G01 X14.0867 Y12.6326
G01 X14.1496 Y12.7676
G01 X14.2034 Y12.9682
G01 X14.2215 Y13.1750
G01 X14.2034 Y13.3818
G01 X14.1496 Y13.5824
G01 X14.0867 Y13.7174
G01 X13.8795 Y13.5102
G01 X13.9044 Y13.4401
G01 X13.9262 Y13.3532
G01 X13.9393 Y13.2645
G01 X13.9437 Y13.1750
G01 X13.9393 Y13.0855
G01 X13.9262 Y12.9968
G01 X13.9044 Y12.9099
G01 X13.8795 Y12.8398
G00 Z2.0000
G00 X12.4879 Y14.8887
G01 F60.00
G01 Z-0.0500
G01 F120.00
G01 X12.6229 Y14.8257
G01 X12.7639 Y14.7878
G01 X12.7765 Y14.7829
G01 X12.8139 Y14.7658
G01 X12.8240 Y14.7606
G01 X12.8312 Y14.7560
G01 X12.8381 Y14.7509
G01 X12.8445 Y14.7453
G01 X12.8505 Y14.7392
G01 X12.9005 Y14.6788
G01 X12.9070 Y14.6696
G01 X12.9126 Y14.6598
G01 X12.9171 Y14.6495
G01 X12.9214 Y14.6361
G01 X12.9239 Y14.6223
G01 X12.9327 Y14.5473
G01 X12.9330 Y14.5389
G01 X12.9326 Y14.5304
G01 X12.9316 Y14.5220
G01 X12.9300 Y14.5137
G01 X12.9269 Y14.5029
G01 X12.9228 Y14.4924
G01 X12.8898 Y14.4245
G01 X12.8856 Y14.4172
G01 X12.8793 Y14.4079
G01 X12.8739 Y14.4014
G01 X12.8660 Y14.3933
G01 X12.8574 Y14.3861
G01 X12.8481 Y14.3798
G01 X12.7861 Y14.3420
G01 X12.7740 Y14.3360
G01 X12.7665 Y14.3331
G01 X12.7587 Y14.3307
G01 X12.6229 Y14.2943
G01 X12.4879 Y14.2313
G01 X12.6951 Y14.0241
G01 X12.7652 Y14.0491
G01 X12.8521 Y14.0708
G01 X12.9408 Y14.0840
G01 X13.0303 Y14.0884
G01 X13.1199 Y14.0840
G01 X13.2085 Y14.0708
G01 X13.2955 Y14.0491
G01 X13.3655 Y14.0241
G01 X13.5727 Y14.2313
G01 X13.4377 Y14.2943
G01 X13.2967 Y14.3322
G01 X13.2842 Y14.3371
G01 X13.2467 Y14.3542
G01 X13.2366 Y14.3594
G01 X13.2294 Y14.3640
G01 X13.2226 Y14.3691
G01 X13.2161 Y14.3747
G01 X13.2101 Y14.3808
G01 X13.1602 Y14.4412
G01 X13.1537 Y14.4504
G01 X13.1469 Y14.4627
G01 X13.1426 Y14.4731
G01 X13.1393 Y14.4839
G01 X13.1368 Y14.4977
G01 X13.1279 Y14.5727
G01 X13.1277 Y14.5811
G01 X13.1280 Y14.5896
G01 X13.1290 Y14.5980
G01 X13.1306 Y14.6063
G01 X13.1337 Y14.6171
G01 X13.1379 Y14.6276
G01 X13.1709 Y14.6955
G01 X13.1750 Y14.7028
G01 X13.1814 Y14.7121
G01 X13.1868 Y14.7186
G01 X13.1946 Y14.7267
G01 X13.2033 Y14.7339
G01 X13.2126 Y14.7402
G01 X13.2746 Y14.7780
G01 X13.2866 Y14.7840
G01 X13.2942 Y14.7869
G01 X13.3019 Y14.7893
G01 X13.4377 Y14.8257
G01 X13.5727 Y14.8887
G01 X13.3655 Y15.0959
G01 X13.2955 Y15.0709
G01 X13.2085 Y15.0492
G01 X13.1199 Y15.0360
G01 X13.0303 Y15.0316
G01 X12.9408 Y15.0360
G01 X12.8521 Y15.0492
G01 X12.7652 Y15.0709
G01 X12.6951 Y15.0959
G01 X12.4879 Y14.8887
G00 Z2.0000
G00 X11.9740 Y15.4026
G01 F60.00
G01 Z-0.0500
G01 F120.00
G01 X12.1812 Y15.6098
G01 X12.1563 Y15.6799
G01 X12.1345 Y15.7668
G01 X12.1213 Y15.8555
G01 X12.1169 Y15.9450
G01 X12.1213 Y16.0345
G01 X12.1345 Y16.1232
G01 X12.1563 Y16.2101
G01 X12.1812 Y16.2802
G01 X11.9740 Y16.4874
G01 X11.9110 Y16.3524
G01 X11.8573 Y16.1518
G01 X11.8392 Y15.9450
G01 X11.8573 Y15.7382
G01 X11.9110 Y15.5376
G01 X11.9740 Y15.4026
G00 Z2.0000
G00 X13.8795 Y15.6098
G01 F60.00
G01 Z-0.0500
G01 F120.00
G01 X14.0867 Y15.4026
G01 X14.1496 Y15.5376
G01 X14.2034 Y15.7382
G01 X14.2215 Y15.9450
G01 X14.2034 Y16.1518
G01 X14.1496 Y16.3524
G01 X14.0867 Y16.4874
G01 X13.8795 Y16.2802
G01 X13.9044 Y16.2101
G01 X13.9262 Y16.1232
G01 X13.9393 Y16.0345
G01 X13.9437 Y15.9450
G01 X13.9393 Y15.8555
G01 X13.9262 Y15.7668
G01 X13.9044 Y15.6799
G01 X13.8795 Y15.6098
G00 Z2.0000
G00 X12.4879 Y17.6587
G01 F60.00
G01 Z-0.0500
G01 F120.00
G01 X12.6229 Y17.5957
G01 X12.7639 Y17.5578
G01 X12.7765 Y17.5529
G01 X12.8139 Y17.5358
G01 X12.8240 Y17.5306
G01 X12.8312 Y17.5260
G01 X12.8381 Y17.5209
G01 X12.8445 Y17.5153
G01 X12.8505 Y17.5092
G01 X12.9005 Y17.4488
G01 X12.9085 Y17.4372
G01 X12.9138 Y17.4273
G01 X12.9181 Y17.4169
G01 X12.9214 Y17.4061
G01 X12.9239 Y17.3923
G01 X12.9327 Y17.3173
G01 X12.9330 Y17.3089
G01 X12.9326 Y17.3004
G01 X12.9316 Y17.2920
G01 X12.9300 Y17.2837
G01 X12.9269 Y17.2729
G01 X12.9228 Y17.2624
G01 X12.8898 Y17.1945
G01 X12.8856 Y17.1872
G01 X12.8793 Y17.1779
G01 X12.8739 Y17.1714
G01 X12.8660 Y17.1633
G01 X12.8574 Y17.1561
G01 X12.8481 Y17.1498
G01 X12.7861 Y17.1120
G01 X12.7740 Y17.1060
G01 X12.7665 Y17.1031
G01 X12.7587 Y17.1007
G01 X12.6229 Y17.0643
G01 X12.4879 Y17.0013
G01 X12.6951 Y16.7941
G01 X12.7652 Y16.8191
G01 X12.8521 Y16.8408
G01 X12.9408 Y16.8540
G01 X13.0303 Y16.8584
G01 X13.1199 Y16.8540
G01 X13.2085 Y16.8408
G01 X13.2955 Y16.8191
G01 X13.3655 Y16.7941
G01 X13.5727 Y17.0013
G01 X13.4377 Y17.0643
G01 X13.2967 Y17.1022
G01 X13.2842 Y17.1071
G01 X13.2467 Y17.1242
G01 X13.2366 Y17.1294
G01 X13.2294 Y17.1340
G01 X13.2226 Y17.1391
G01 X13.2161 Y17.1447
G01 X13.2101 Y17.1508
G01 X13.1602 Y17.2112
G01 X13.1537 Y17.2204
G01 X13.1469 Y17.2327
G01 X13.1426 Y17.2431
G01 X13.1393 Y17.2539
G01 X13.1368 Y17.2677
G01 X13.1279 Y17.3427
G01 X13.1277 Y17.3511
G01 X13.1280 Y17.3596
G01 X13.1290 Y17.3680
G01 X13.1306 Y17.3763
G01 X13.1337 Y17.3871
G01 X13.1379 Y17.3976
G01 X13.1709 Y17.4655
G01 X13.1750 Y17.4728
G01 X13.1814 Y17.4821
G01 X13.1886 Y17.4907
G01 X13.1946 Y17.4967
G01 X13.2033 Y17.5039
G01 X13.2126 Y17.5102
G01 X13.2746 Y17.5480
G01 X13.2866 Y17.5540
G01 X13.2942 Y17.5569
G01 X13.3019 Y17.5593
G01 X13.4377 Y17.5957
G01 X13.5727 Y17.6587
G01 X13.3655 Y17.8659
G01 X13.2955 Y17.8409
G01 X13.2085 Y17.8192
G01 X13.1199 Y17.8060
G01 X13.0303 Y17.8016
G01 X12.9408 Y17.8060
G01 X12.8521 Y17.8192
G01 X12.7652 Y17.8409
G01 X12.6951 Y17.8659
G01 X12.4879 Y17.6587
G00 Z2.0000
G00 X11.9740 Y18.1726
G01 F60.00
G01 Z-0.0500
G01 F120.00
G01 X12.1812 Y18.3798
G01 X12.1563 Y18.4499
G01 X12.1345 Y18.5368
G01 X12.1213 Y18.6255
G01 X12.1169 Y18.7150
G01 X12.1213 Y18.8045
G01 X12.1345 Y18.8932
G01 X12.1563 Y18.9801
G01 X12.1812 Y19.0502
G01 X11.9740 Y19.2574
G01 X11.9110 Y19.1224
G01 X11.8573 Y18.9218
G01 X11.8392 Y18.7150
G01 X11.8573 Y18.5082
G01 X11.9110 Y18.3076
G01 X11.9740 Y18.1726
G00 Z2.0000
G00 X13.8795 Y18.3798
G01 F60.00
G01 Z-0.0500
G01 F120.00
G01 X14.0867 Y18.1726
G01 X14.1496 Y18.3076
G01 X14.2034 Y18.5082
G01 X14.2215 Y18.7150
G01 X14.2034 Y18.9218
G01 X14.1496 Y19.1224
G01 X14.0867 Y19.2574
G01 X13.8795 Y19.0502
G01 X13.9044 Y18.9801
G01 X13.9262 Y18.8932
G01 X13.9393 Y18.8045
G01 X13.9437 Y18.7150
G01 X13.9393 Y18.6255
G01 X13.9262 Y18.5368
G01 X13.9044 Y18.4499
G01 X13.8795 Y18.3798
G00 Z2.0000
G00 X12.4879 Y20.4287
G01 F60.00
G01 Z-0.0500
G01 F120.00
G01 X12.6229 Y20.3657
G01 X12.7639 Y20.3278
G01 X12.7765 Y20.3229
G01 X12.8139 Y20.3058
G01 X12.8240 Y20.3006
G01 X12.8312 Y20.2960
G01 X12.8381 Y20.2909
G01 X12.8445 Y20.2853
G01 X12.8505 Y20.2792
G01 X12.9005 Y20.2188
G01 X12.9085 Y20.2072
G01 X12.9138 Y20.1973
G01 X12.9181 Y20.1869
G01 X12.9214 Y20.1761
G01 X12.9239 Y20.1623
G01 X12.9327 Y20.0873
G01 X12.9330 Y20.0789
G01 X12.9326 Y20.0704
G01 X12.9316 Y20.0620
G01 X12.9300 Y20.0537
G01 X12.9269 Y20.0429
G01 X12.9228 Y20.0324
G01 X12.8898 Y19.9645
G01 X12.8841 Y19.9548
G01 X12.8793 Y19.9479
G01 X12.8739 Y19.9414
G01 X12.8660 Y19.9333
G01 X12.8574 Y19.9261
G01 X12.8481 Y19.9198
G01 X12.7861 Y19.8820
G01 X12.7740 Y19.8760
G01 X12.7665 Y19.8731
G01 X12.7587 Y19.8707
G01 X12.6229 Y19.8343
G01 X12.4879 Y19.7713
G01 X12.6951 Y19.5641
G01 X12.7652 Y19.5891
G01 X12.8521 Y19.6108
G01 X12.9408 Y19.6240
G01 X13.0303 Y19.6284
G01 X13.1199 Y19.6240
G01 X13.2085 Y19.6108
G01 X13.2955 Y19.5891
G01 X13.3655 Y19.5641
G01 X13.5727 Y19.7713
G01 X13.4377 Y19.8343
G01 X13.2967 Y19.8722
G01 X13.2842 Y19.8771
G01 X13.2467 Y19.8942
G01 X13.2366 Y19.8994
G01 X13.2294 Y19.9040
G01 X13.2226 Y19.9091
G01 X13.2161 Y19.9147
G01 X13.2101 Y19.9208
G01 X13.1602 Y19.9812
G01 X13.1537 Y19.9904
G01 X13.1469 Y20.0027
G01 X13.1426 Y20.0131
G01 X13.1393 Y20.0239
G01 X13.1368 Y20.0377
G01 X13.1279 Y20.1127
G01 X13.1277 Y20.1211
G01 X13.1280 Y20.1296
G01 X13.1290 Y20.1380
G01 X13.1306 Y20.1463
G01 X13.1337 Y20.1571
G01 X13.1379 Y20.1676
G01 X13.1709 Y20.2355
G01 X13.1765 Y20.2452
G01 X13.1814 Y20.2521
G01 X13.1868 Y20.2586
G01 X13.1946 Y20.2667
G01 X13.2033 Y20.2739
G01 X13.2126 Y20.2802
G01 X13.2746 Y20.3180
G01 X13.2866 Y20.3240
G01 X13.2942 Y20.3269
G01 X13.3019 Y20.3293
G01 X13.4377 Y20.3657
G01 X13.5727 Y20.4287
G01 X13.3655 Y20.6359
G01 X13.2955 Y20.6109
G01 X13.2085 Y20.5892
G01 X13.1199 Y20.5760
G01 X13.0303 Y20.5716
G01 X12.9408 Y20.5760
G01 X12.8521 Y20.5892
G01 X12.7652 Y20.6109
G01 X12.6951 Y20.6359
G01 X12.4879 Y20.4287
G00 Z2.0000
G00 X11.9740 Y20.9426
G01 F60.00
G01 Z-0.0500
G01 F120.00
G01 X12.1812 Y21.1498
G01 X12.1563 Y21.2199
G01 X12.1345 Y21.3068
G01 X12.1213 Y21.3955
G01 X12.1169 Y21.4850
G01 X12.1213 Y21.5745
G01 X12.1345 Y21.6632
G01 X12.1563 Y21.7501
G01 X12.1812 Y21.8202
G01 X11.9740 Y22.0274
G01 X11.9110 Y21.8924
G01 X11.8573 Y21.6918
G01 X11.8392 Y21.4850
G01 X11.8573 Y21.2782
G01 X11.9110 Y21.0776
G01 X11.9740 Y20.9426
G00 Z2.0000
G00 X13.8795 Y21.1498
G01 F60.00
G01 Z-0.0500
G01 F120.00
G01 X14.0867 Y20.9426
G01 X14.1496 Y21.0776
G01 X14.2034 Y21.2782
G01 X14.2215 Y21.4850
G01 X14.2034 Y21.6918
G01 X14.1496 Y21.8924
G01 X14.0867 Y22.0274
G01 X13.8795 Y21.8202
G01 X13.9044 Y21.7501
G01 X13.9262 Y21.6632
G01 X13.9393 Y21.5745
G01 X13.9437 Y21.4850
G01 X13.9393 Y21.3955
G01 X13.9262 Y21.3068
G01 X13.9044 Y21.2199
G01 X13.8795 Y21.1498
G00 Z2.0000
G00 X12.4879 Y23.1987
G01 F60.00
G01 Z-0.0500
G01 F120.00
G01 X12.6229 Y23.1357
G01 X12.7639 Y23.0978
G01 X12.7765 Y23.0929
G01 X12.8139 Y23.0758
G01 X12.8240 Y23.0706
G01 X12.8312 Y23.0660
G01 X12.8381 Y23.0609
G01 X12.8445 Y23.0553
G01 X12.8505 Y23.0492
G01 X12.9005 Y22.9888
G01 X12.9070 Y22.9796
G01 X12.9138 Y22.9673
G01 X12.9181 Y22.9569
G01 X12.9214 Y22.9461
G01 X12.9239 Y22.9323
G01 X12.9327 Y22.8573
G01 X12.9330 Y22.8489
G01 X12.9326 Y22.8404
G01 X12.9316 Y22.8320
G01 X12.9300 Y22.8237
G01 X12.9269 Y22.8129
G01 X12.9228 Y22.8024
G01 X12.8898 Y22.7345
G01 X12.8856 Y22.7272
G01 X12.8793 Y22.7179
G01 X12.8739 Y22.7114
G01 X12.8660 Y22.7033
G01 X12.8574 Y22.6961
G01 X12.8481 Y22.6898
G01 X12.7861 Y22.6520
G01 X12.7740 Y22.6460
G01 X12.7665 Y22.6431
G01 X12.7587 Y22.6407
G01 X12.6229 Y22.6043
G01 X12.4879 Y22.5413
G01 X12.6951 Y22.3341
G01 X12.7652 Y22.3591
G01 X12.8521 Y22.3808
G01 X12.9408 Y22.3940
G01 X13.0303 Y22.3984
G01 X13.1199 Y22.3940
G01 X13.2085 Y22.3808
G01 X13.2955 Y22.3591
G01 X13.3655 Y22.3341
G01 X13.5727 Y22.5413
G01 X13.4377 Y22.6043
G01 X13.2967 Y22.6422
G01 X13.2842 Y22.6471
G01 X13.2467 Y22.6642
G01 X13.2366 Y22.6694
G01 X13.2294 Y22.6740
G01 X13.2226 Y22.6791
G01 X13.2161 Y22.6847
G01 X13.2101 Y22.6908
G01 X13.1602 Y22.7512
G01 X13.1537 Y22.7604
G01 X13.1469 Y22.7727
G01 X13.1426 Y22.7831
G01 X13.1393 Y22.7939
G01 X13.1368 Y22.8077
G01 X13.1279 Y22.8827
G01 X13.1277 Y22.8911
G01 X13.1280 Y22.8996
G01 X13.1290 Y22.9080
G01 X13.1306 Y22.9163
G01 X13.1337 Y22.9271
G01 X13.1379 Y22.9376
G01 X13.1709 Y23.0055
G01 X13.1750 Y23.0128
G01 X13.1814 Y23.0221
G01 X13.1886 Y23.0307
G01 X13.1946 Y23.0367
G01 X13.2033 Y23.0439
G01 X13.2126 Y23.0502
G01 X13.2746 Y23.0880
G01 X13.2866 Y23.0940
G01 X13.2942 Y23.0969
G01 X13.3019 Y23.0993
G01 X13.4377 Y23.1357
G01 X13.5727 Y23.1987
G01 X13.3655 Y23.4059
G01 X13.2955 Y23.3809
G01 X13.2085 Y23.3592
G01 X13.1199 Y23.3460
G01 X13.0303 Y23.3416
G01 X12.9408 Y23.3460
G01 X12.8521 Y23.3592
G01 X12.7652 Y23.3809
G01 X12.6951 Y23.4059
G01 X12.4879 Y23.1987
G00 Z2.0000
G00 X11.9740 Y23.7126
G01 F60.00
G01 Z-0.0500
G01 F120.00
G01 X12.1812 Y23.9198
G01 X12.1563 Y23.9899
G01 X12.1345 Y24.0768
G01 X12.1213 Y24.1655
G01 X12.1169 Y24.2550
G01 X12.1213 Y24.3445
G01 X12.1345 Y24.4332
G01 X12.1563 Y24.5201
G01 X12.1812 Y24.5902
G01 X11.9740 Y24.7974
G01 X11.9110 Y24.6624
G01 X11.8573 Y24.4618
G01 X11.8392 Y24.2550
G01 X11.8573 Y24.0482
G01 X11.9110 Y23.8476
G01 X11.9740 Y23.7126
G00 Z2.0000
G00 X13.8795 Y23.9198
G01 F60.00
G01 Z-0.0500
G01 F120.00
G01 X14.0867 Y23.7126
G01 X14.1496 Y23.8476
G01 X14.2034 Y24.0482
G01 X14.2215 Y24.2550
G01 X14.2034 Y24.4618
G01 X14.1496 Y24.6624
G01 X14.0867 Y24.7974
G01 X13.8795 Y24.5902
G01 X13.9044 Y24.5201
G01 X13.9262 Y24.4332
G01 X13.9393 Y24.3445
G01 X13.9437 Y24.2550
G01 X13.9393 Y24.1655
G01 X13.9262 Y24.0768
G01 X13.9044 Y23.9899
G01 X13.8795 Y23.9198
G00 Z2.0000
G00 X12.4879 Y25.9687
G01 F60.00
G01 Z-0.0500
G01 F120.00
G01 X12.6229 Y25.9057
G01 X12.7639 Y25.8678
G01 X12.7765 Y25.8629
G01 X12.8139 Y25.8458
G01 X12.8240 Y25.8406
G01 X12.8312 Y25.8360
G01 X12.8381 Y25.8309
G01 X12.8445 Y25.8253
G01 X12.8505 Y25.8192
G01 X12.9005 Y25.7588
G01 X12.9070 Y25.7496
G01 X12.9126 Y25.7398
G01 X12.9181 Y25.7269
G01 X12.9214 Y25.7161
G01 X12.9239 Y25.7023
G01 X12.9327 Y25.6273
G01 X12.9330 Y25.6189
G01 X12.9326 Y25.6104
G01 X12.9316 Y25.6020
G01 X12.9300 Y25.5937
G01 X12.9269 Y25.5829
G01 X12.9228 Y25.5724
G01 X12.8898 Y25.5045
G01 X12.8856 Y25.4972
G01 X12.8793 Y25.4879
G01 X12.8739 Y25.4814
G01 X12.8660 Y25.4733
G01 X12.8574 Y25.4661
G01 X12.8481 Y25.4598
G01 X12.7861 Y25.4220
G01 X12.7740 Y25.4160
G01 X12.7665 Y25.4131
G01 X12.7587 Y25.4107
G01 X12.6229 Y25.3743
G01 X12.4879 Y25.3113
G01 X12.6951 Y25.1041
G01 X12.7652 Y25.1291
G01 X12.8521 Y25.1508
G01 X12.9408 Y25.1640
G01 X13.0303 Y25.1684
G01 X13.1199 Y25.1640
G01 X13.2085 Y25.1508
G01 X13.2955 Y25.1291
G01 X13.3655 Y25.1041
G01 X13.5727 Y25.3113
G01 X13.4377 Y25.3743
G01 X13.2967 Y25.4122
G01 X13.2842 Y25.4171
G01 X13.2467 Y25.4342
G01 X13.2366 Y25.4394
G01 X13.2294 Y25.4440
G01 X13.2226 Y25.4491
G01 X13.2161 Y25.4547
G01 X13.2101 Y25.4608
G01 X13.1602 Y25.5212
G01 X13.1537 Y25.5304
G01 X13.1469 Y25.5427
G01 X13.1426 Y25.5531
G01 X13.1393 Y25.5639
G01 X13.1368 Y25.5777
G01 X13.1279 Y25.6527
G01 X13.1277 Y25.6611
G01 X13.1280 Y25.6696
G01 X13.1290 Y25.6780
G01 X13.1306 Y25.6863
G01 X13.1337 Y25.6971
G01 X13.1379 Y25.7076
G01 X13.1709 Y25.7755
G01 X13.1765 Y25.7852
G01 X13.1814 Y25.7921
G01 X13.1868 Y25.7986
G01 X13.1946 Y25.8067
G01 X13.2033 Y25.8139
G01 X13.2126 Y25.8202
G01 X13.2746 Y25.8580
G01 X13.2866 Y25.8640
G01 X13.2942 Y25.8669
G01 X13.3019 Y25.8693
G01 X13.4377 Y25.9057
G01 X13.5727 Y25.9687
G01 X13.3655 Y26.1759
G01 X13.2955 Y26.1509
G01 X13.2085 Y26.1292
G01 X13.1199 Y26.1160
G01 X13.0303 Y26.1116
G01 X12.9408 Y26.1160
G01 X12.8521 Y26.1292
G01 X12.7652 Y26.1509
G01 X12.6951 Y26.1759
G01 X12.4879 Y25.9687
G00 Z2.0000
G00 X9.5771 Y25.6456
G01 F60.00
G01 Z-0.0500
G01 F120.00
G01 X9.5771 Y25.6344
G01 X9.5813 Y25.5505
G01 X9.5945 Y25.4618
G01 X9.6163 Y25.3749
G01 X9.6465 Y25.2905
G01 X9.6848 Y25.2094
G01 X9.7309 Y25.1325
G01 X9.7843 Y25.0605
G01 X9.8445 Y24.9941
G01 X9.9109 Y24.9339
G01 X9.9829 Y24.8805
G01 X10.0598 Y24.8345
G01 X10.1408 Y24.7961
G01 X10.2252 Y24.7659
G01 X10.3121 Y24.7442
G01 X10.4008 Y24.7310
G01 X10.4903 Y24.7266
G01 X10.5799 Y24.7310
G01 X10.6685 Y24.7442
G01 X10.7555 Y24.7659
G01 X10.8399 Y24.7961
G01 X10.9209 Y24.8345
G01 X10.9978 Y24.8805
G01 X11.0698 Y24.9339
G01 X11.1362 Y24.9941
G01 X11.1964 Y25.0605
G01 X11.2498 Y25.1325
G01 X11.2959 Y25.2094
G01 X11.3342 Y25.2905
G01 X11.3644 Y25.3749
G01 X11.3862 Y25.4618
G01 X11.3993 Y25.5505
G01 X11.4037 Y25.6400
G01 X11.3993 Y25.7295
G01 X11.3862 Y25.8182
G01 X11.3644 Y25.9051
G01 X11.3342 Y25.9895
G01 X11.2959 Y26.0706
G01 X11.2498 Y26.1475
G01 X11.1964 Y26.2195
G01 X11.1362 Y26.2859
G01 X11.0698 Y26.3461
G01 X10.9978 Y26.3995
G01 X10.9209 Y26.4455
G01 X10.8399 Y26.4839
G01 X10.7555 Y26.5141
G01 X10.6685 Y26.5358
G01 X10.5799 Y26.5490
G01 X10.4903 Y26.5534
G01 X10.4008 Y26.5490
G01 X10.3121 Y26.5358
G01 X10.2252 Y26.5141
G01 X10.1408 Y26.4839
G01 X10.0598 Y26.4455
G01 X9.9829 Y26.3995
G01 X9.9109 Y26.3461
G01 X9.8445 Y26.2859
G01 X9.7843 Y26.2195
G01 X9.7309 Y26.1475
G01 X9.6848 Y26.0706
G01 X9.6465 Y25.9895
G01 X9.6163 Y25.9051
G01 X9.5945 Y25.8182
G01 X9.5813 Y25.7295
G01 X9.5771 Y25.6456
G00 Z2.0000
G00 X9.5771 Y22.8756
G01 F60.00
G01 Z-0.0500
G01 F120.00
G01 X9.5771 Y22.8644
G01 X9.5813 Y22.7805
G01 X9.5945 Y22.6918
G01 X9.6163 Y22.6049
G01 X9.6465 Y22.5205
G01 X9.6848 Y22.4394
G01 X9.7309 Y22.3625
G01 X9.7843 Y22.2905
G01 X9.8445 Y22.2241
G01 X9.9109 Y22.1639
G01 X9.9829 Y22.1105
G01 X10.0598 Y22.0645
G01 X10.1408 Y22.0261
G01 X10.2252 Y21.9959
G01 X10.3121 Y21.9742
G01 X10.4008 Y21.9610
G01 X10.4903 Y21.9566
G01 X10.5799 Y21.9610
G01 X10.6685 Y21.9742
G01 X10.7555 Y21.9959
G01 X10.8399 Y22.0261
G01 X10.9209 Y22.0645
G01 X10.9978 Y22.1105
G01 X11.0698 Y22.1639
G01 X11.1362 Y22.2241
G01 X11.1964 Y22.2905
G01 X11.2498 Y22.3625
G01 X11.2959 Y22.4394
G01 X11.3342 Y22.5205
G01 X11.3644 Y22.6049
G01 X11.3862 Y22.6918
G01 X11.3993 Y22.7805
G01 X11.4037 Y22.8700
G01 X11.3993 Y22.9595
G01 X11.3862 Y23.0482
G01 X11.3644 Y23.1351
G01 X11.3342 Y23.2195
G01 X11.2959 Y23.3006
G01 X11.2498 Y23.3775
G01 X11.1964 Y23.4495
G01 X11.1362 Y23.5159
G01 X11.0698 Y23.5761
G01 X10.9978 Y23.6295
G01 X10.9209 Y23.6755
G01 X10.8399 Y23.7139
G01 X10.7555 Y23.7441
G01 X10.6685 Y23.7658
G01 X10.5799 Y23.7790
G01 X10.4903 Y23.7834
G01 X10.4008 Y23.7790
G01 X10.3121 Y23.7658
G01 X10.2252 Y23.7441
G01 X10.1408 Y23.7139
G01 X10.0598 Y23.6755
G01 X9.9829 Y23.6295
G01 X9.9109 Y23.5761
G01 X9.8445 Y23.5159
G01 X9.7843 Y23.4495
G01 X9.7309 Y23.3775
G01 X9.6848 Y23.3006
G01 X9.6465 Y23.2195
G01 X9.6163 Y23.1351
G01 X9.5945 Y23.0482
G01 X9.5813 Y22.9595
G01 X9.5771 Y22.8756
G00 Z2.0000
G00 X9.5771 Y20.1056
G01 F60.00
G01 Z-0.0500
G01 F120.00
G01 X9.5771 Y20.0944
G01 X9.5813 Y20.0105
G01 X9.5945 Y19.9218
G01 X9.6163 Y19.8349
G01 X9.6465 Y19.7505
G01 X9.6848 Y19.6694
G01 X9.7309 Y19.5925
G01 X9.7843 Y19.5205
G01 X9.8445 Y19.4541
G01 X9.9109 Y19.3939
G01 X9.9829 Y19.3405
G01 X10.0598 Y19.2945
G01 X10.1408 Y19.2561
G01 X10.2252 Y19.2259
G01 X10.3121 Y19.2042
G01 X10.4008 Y19.1910
G01 X10.4903 Y19.1866
G01 X10.5799 Y19.1910
G01 X10.6685 Y19.2042
G01 X10.7555 Y19.2259
G01 X10.8399 Y19.2561
G01 X10.9209 Y19.2945
G01 X10.9978 Y19.3405
G01 X11.0698 Y19.3939
G01 X11.1362 Y19.4541
G01 X11.1964 Y19.5205
G01 X11.2498 Y19.5925
G01 X11.2959 Y19.6694
G01 X11.3342 Y19.7505
G01 X11.3644 Y19.8349
G01 X11.3862 Y19.9218
G01 X11.3993 Y20.0105
G01 X11.4037 Y20.1000
G01 X11.3993 Y20.1895
G01 X11.3862 Y20.2782
G01 X11.3644 Y20.3651
G01 X11.3342 Y20.4495
G01 X11.2959 Y20.5306
G01 X11.2498 Y20.6075
G01 X11.1964 Y20.6795
G01 X11.1362 Y20.7459
G01 X11.0698 Y20.8061
G01 X10.9978 Y20.8595
G01 X10.9209 Y20.9055
G01 X10.8399 Y20.9439
G01 X10.7555 Y20.9741
G01 X10.6685 Y20.9958
G01 X10.5799 Y21.0090
G01 X10.4903 Y21.0134
G01 X10.4008 Y21.0090
G01 X10.3121 Y20.9958
G01 X10.2252 Y20.9741
G01 X10.1408 Y20.9439
G01 X10.0598 Y20.9055
G01 X9.9829 Y20.8595
G01 X9.9109 Y20.8061
G01 X9.8445 Y20.7459
G01 X9.7843 Y20.6795
G01 X9.7309 Y20.6075
G01 X9.6848 Y20.5306
G01 X9.6465 Y20.4495
G01 X9.6163 Y20.3651
G01 X9.5945 Y20.2782
G01 X9.5813 Y20.1895
G01 X9.5771 Y20.1056
G00 Z2.0000
G00 X9.5771 Y17.3356
G01 F60.00
G01 Z-0.0500
G01 F120.00
G01 X9.5771 Y17.3244
G01 X9.5813 Y17.2405
G01 X9.5945 Y17.1518
G01 X9.6163 Y17.0649
G01 X9.6465 Y16.9805
G01 X9.6848 Y16.8994
G01 X9.7309 Y16.8225
G01 X9.7843 Y16.7505
G01 X9.8445 Y16.6841
G01 X9.9109 Y16.6239
G01 X9.9829 Y16.5705
G01 X10.0598 Y16.5245
G01 X10.1408 Y16.4861
G01 X10.2252 Y16.4559
G01 X10.3121 Y16.4342
G01 X10.4008 Y16.4210
G01 X10.4903 Y16.4166
G01 X10.5799 Y16.4210
G01 X10.6685 Y16.4342
G01 X10.7555 Y16.4559
G01 X10.8399 Y16.4861
G01 X10.9209 Y16.5245
G01 X10.9978 Y16.5705
G01 X11.0698 Y16.6239
G01 X11.1362 Y16.6841
G01 X11.1964 Y16.7505
G01 X11.2498 Y16.8225
G01 X11.2959 Y16.8994
G01 X11.3342 Y16.9805
G01 X11.3644 Y17.0649
G01 X11.3862 Y17.1518
G01 X11.3993 Y17.2405
G01 X11.4037 Y17.3300
G01 X11.3993 Y17.4195
G01 X11.3862 Y17.5082
G01 X11.3644 Y17.5951
G01 X11.3342 Y17.6795
G01 X11.2959 Y17.7606
G01 X11.2498 Y17.8375
G01 X11.1964 Y17.9095
G01 X11.1362 Y17.9759
G01 X11.0698 Y18.0361
G01 X10.9978 Y18.0895
G01 X10.9209 Y18.1355
G01 X10.8399 Y18.1739
G01 X10.7555 Y18.2041
G01 X10.6685 Y18.2258
G01 X10.5799 Y18.2390
G01 X10.4903 Y18.2434
G01 X10.4008 Y18.2390
G01 X10.3121 Y18.2258
G01 X10.2252 Y18.2041
G01 X10.1408 Y18.1739
G01 X10.0598 Y18.1355
G01 X9.9829 Y18.0895
G01 X9.9109 Y18.0361
G01 X9.8445 Y17.9759
G01 X9.7843 Y17.9095
G01 X9.7309 Y17.8375
G01 X9.6848 Y17.7606
G01 X9.6465 Y17.6795
G01 X9.6163 Y17.5951
G01 X9.5945 Y17.5082
G01 X9.5813 Y17.4195
G01 X9.5771 Y17.3356
G00 Z2.0000
G00 X9.5771 Y14.5656
G01 F60.00
G01 Z-0.0500
G01 F120.00
G01 X9.5771 Y14.5544
G01 X9.5813 Y14.4705
G01 X9.5945 Y14.3818
G01 X9.6163 Y14.2949
G01 X9.6465 Y14.2105
G01 X9.6848 Y14.1294
G01 X9.7309 Y14.0525
G01 X9.7843 Y13.9805
G01 X9.8445 Y13.9141
G01 X9.9109 Y13.8539
G01 X9.9829 Y13.8005
G01 X10.0598 Y13.7545
G01 X10.1408 Y13.7161
G01 X10.2252 Y13.6859
G01 X10.3121 Y13.6642
G01 X10.4008 Y13.6510
G01 X10.4903 Y13.6466
G01 X10.5799 Y13.6510
G01 X10.6685 Y13.6642
G01 X10.7555 Y13.6859
G01 X10.8399 Y13.7161
G01 X10.9209 Y13.7545
G01 X10.9978 Y13.8005
G01 X11.0698 Y13.8539
G01 X11.1362 Y13.9141
G01 X11.1964 Y13.9805
G01 X11.2498 Y14.0525
G01 X11.2959 Y14.1294
G01 X11.3342 Y14.2105
G01 X11.3644 Y14.2949
G01 X11.3862 Y14.3818
G01 X11.3993 Y14.4705
G01 X11.4037 Y14.5600
G01 X11.3993 Y14.6495
G01 X11.3862 Y14.7382
G01 X11.3644 Y14.8251
G01 X11.3342 Y14.9095
G01 X11.2959 Y14.9906
G01 X11.2498 Y15.0675
G01 X11.1964 Y15.1395
G01 X11.1362 Y15.2059
G01 X11.0698 Y15.2661
G01 X10.9978 Y15.3195
G01 X10.9209 Y15.3655
G01 X10.8399 Y15.4039
G01 X10.7555 Y15.4341
G01 X10.6685 Y15.4558
G01 X10.5799 Y15.4690
G01 X10.4903 Y15.4734
G01 X10.4008 Y15.4690
G01 X10.3121 Y15.4558
G01 X10.2252 Y15.4341
G01 X10.1408 Y15.4039
G01 X10.0598 Y15.3655
G01 X9.9829 Y15.3195
G01 X9.9109 Y15.2661
G01 X9.8445 Y15.2059
G01 X9.7843 Y15.1395
G01 X9.7309 Y15.0675
G01 X9.6848 Y14.9906
G01 X9.6465 Y14.9095
G01 X9.6163 Y14.8251
G01 X9.5945 Y14.7382
G01 X9.5813 Y14.6495
G01 X9.5771 Y14.5656
G00 Z2.0000
G00 X12.1171 Y10.4106
G01 F60.00
G01 Z-0.0500
G01 F120.00
G01 X12.1171 Y10.3994
G01 X12.1213 Y10.3155
G01 X12.1345 Y10.2268
G01 X12.1563 Y10.1399
G01 X12.1865 Y10.0555
G01 X12.2248 Y9.9744
G01 X12.2709 Y9.8975
G01 X12.3243 Y9.8255
G01 X12.3845 Y9.7591
G01 X12.4509 Y9.6989
G01 X12.5229 Y9.6455
G01 X12.5998 Y9.5995
G01 X12.6808 Y9.5611
G01 X12.7652 Y9.5309
G01 X12.8521 Y9.5092
G01 X12.9408 Y9.4960
G01 X13.0303 Y9.4916
G01 X13.1199 Y9.4960
G01 X13.2085 Y9.5092
G01 X13.2955 Y9.5309
G01 X13.3799 Y9.5611
G01 X13.4609 Y9.5995
G01 X13.5378 Y9.6455
G01 X13.6098 Y9.6989
G01 X13.6762 Y9.7591
G01 X13.7364 Y9.8255
G01 X13.7898 Y9.8975
G01 X13.8359 Y9.9744
G01 X13.8742 Y10.0555
G01 X13.9044 Y10.1399
G01 X13.9262 Y10.2268
G01 X13.9393 Y10.3155
G01 X13.9437 Y10.4050
G01 X13.9393 Y10.4945
G01 X13.9262 Y10.5832
G01 X13.9044 Y10.6701
G01 X13.8742 Y10.7545
G01 X13.8359 Y10.8356
G01 X13.7898 Y10.9125
G01 X13.7364 Y10.9845
G01 X13.6762 Y11.0509
G01 X13.6098 Y11.1111
G01 X13.5378 Y11.1645
G01 X13.4609 Y11.2105
G01 X13.3799 Y11.2489
G01 X13.2955 Y11.2791
G01 X13.2085 Y11.3008
G01 X13.1199 Y11.3140
G01 X13.0303 Y11.3184
G01 X12.9408 Y11.3140
G01 X12.8521 Y11.3008
G01 X12.7652 Y11.2791
G01 X12.6808 Y11.2489
G01 X12.5998 Y11.2105
G01 X12.5229 Y11.1645
G01 X12.4509 Y11.1111
G01 X12.3845 Y11.0509
G01 X12.3243 Y10.9845
G01 X12.2709 Y10.9125
G01 X12.2248 Y10.8356
G01 X12.1865 Y10.7545
G01 X12.1563 Y10.6701
G01 X12.1345 Y10.5832
G01 X12.1213 Y10.4945
G01 X12.1171 Y10.4106
G00 Z2.0000
G00 X16.9977 Y10.9054
G01 F60.00
G01 Z-0.0500
G01 F120.00
G01 X16.9834 Y10.6914
G01 X16.9834 Y9.2334
G01 X17.2566 Y9.2334
G01 X17.2566 Y10.6200
G01 X17.2653 Y10.7999
G01 X17.2663 Y10.8082
G01 X17.2924 Y10.9835
G01 X17.3354 Y11.1556
G01 X17.3386 Y11.1662
G01 X17.3964 Y11.3279
G01 X17.3995 Y11.3357
G01 X17.4741 Y11.4934
G01 X17.4794 Y11.5032
G01 X17.5706 Y11.6552
G01 X17.6761 Y11.7977
G01 X17.6832 Y11.8063
G01 X17.8024 Y11.9376
G01 X17.9379 Y12.0604
G01 X18.0802 Y12.1662
G01 X18.0895 Y12.1723
G01 X18.2416 Y12.2634
G01 X18.4018 Y12.3393
G01 X18.4121 Y12.3436
G01 X18.5791 Y12.4032
G01 X18.7566 Y12.4476
G01 X18.7566 Y12.7255
G01 X18.6236 Y12.7030
G01 X18.3504 Y12.6183
G01 X18.0909 Y12.4979
G01 X17.8498 Y12.3440
G01 X17.6313 Y12.1593
G01 X17.4395 Y11.9471
G01 X17.2775 Y11.7113
G01 X17.1485 Y11.4560
G01 X17.0547 Y11.1857
G01 X16.9977 Y10.9054
G00 Z2.0000
G00 X19.4834 Y12.4476
G01 F60.00
G01 Z-0.0500
G01 F120.00
G01 X19.6609 Y12.4032
G01 X19.8331 Y12.3416
G01 X19.9984 Y12.2634
G01 X20.1505 Y12.1723
G01 X20.1598 Y12.1662
G01 X20.3021 Y12.0604
G01 X20.4336 Y11.9415
G01 X20.4415 Y11.9336
G01 X20.5568 Y11.8063
G01 X20.5639 Y11.7977
G01 X20.6694 Y11.6552
G01 X20.7620 Y11.5008
G01 X20.7659 Y11.4934
G01 X20.8416 Y11.3331
G01 X20.9032 Y11.1609
G01 X20.9476 Y10.9835
G01 X20.9744 Y10.8026
G01 X20.9834 Y10.6200
G01 X20.9834 Y9.2334
G01 X21.2566 Y9.2334
G01 X21.2566 Y10.7630
G01 X21.2185 Y11.0465
G01 X21.1429 Y11.3224
G01 X21.0312 Y11.5858
G01 X20.8854 Y11.8319
G01 X20.7082 Y12.0564
G01 X20.5025 Y12.2553
G01 X20.2722 Y12.4250
G01 X20.0214 Y12.5624
G01 X19.7544 Y12.6652
G01 X19.4834 Y12.7298
G01 X19.4834 Y12.4476
G00 Z2.0000
G00 X21.2966 Y12.6625
G01 F60.00
G01 Z-0.0500
G01 F120.00
G01 X21.2294 Y12.6945
G01 X21.1525 Y12.7405
G01 X21.0805 Y12.7939
G01 X21.0182 Y12.8503
G01 X21.0103 Y12.8582
G01 X20.9576 Y12.9163
G01 X20.9505 Y12.9249
G01 X20.9005 Y12.9925
G01 X20.8572 Y13.0646
G01 X20.8520 Y13.0744
G01 X20.8184 Y13.1454
G01 X20.8141 Y13.1556
G01 X20.7859 Y13.2349
G01 X20.7647 Y13.3191
G01 X20.7632 Y13.3273
G01 X20.7517 Y13.4049
G01 X20.7508 Y13.4132
G01 X20.7466 Y13.4972
G01 X20.7466 Y13.5866
G01 X20.4734 Y13.5866
G01 X20.4734 Y13.4482
G01 X20.4870 Y13.2932
G01 X20.5407 Y13.0926
G01 X20.6284 Y12.9044
G01 X20.7475 Y12.7344
G01 X20.8944 Y12.5875
G01 X21.0644 Y12.4684
G01 X21.2526 Y12.3807
G01 X21.2966 Y12.3689
G01 X21.2966 Y12.6625
G00 Z2.0000
G00 X20.7466 Y14.3134
G01 F60.00
G01 Z-0.0500
G01 F120.00
G01 X20.7466 Y14.4028
G01 X20.7508 Y14.4868
G01 X20.7517 Y14.4951
G01 X20.7632 Y14.5727
G01 X20.7647 Y14.5809
G01 X20.7859 Y14.6651
G01 X20.8141 Y14.7444
G01 X20.8184 Y14.7546
G01 X20.8520 Y14.8256
G01 X20.8572 Y14.8354
G01 X20.9005 Y14.9075
G01 X20.9505 Y14.9751
G01 X20.9576 Y14.9837
G01 X21.0103 Y15.0418
G01 X21.0182 Y15.0497
G01 X21.0805 Y15.1061
G01 X21.1525 Y15.1595
G01 X21.2294 Y15.2055
G01 X21.2966 Y15.2375
G01 X21.2966 Y15.5311
G01 X21.2526 Y15.5193
G01 X21.0644 Y15.4316
G01 X20.8944 Y15.3125
G01 X20.7475 Y15.1657
G01 X20.6284 Y14.9956
G01 X20.5407 Y14.8074
G01 X20.4870 Y14.6068
G01 X20.4734 Y14.4518
G01 X20.4734 Y14.3134
G01 X20.7466 Y14.3134
G00 Z2.0000
G00 X18.8634 Y18.3625
G01 F60.00
G01 Z-0.0500
G01 F120.00
G01 X18.8634 Y18.0689
G01 X18.9074 Y18.0807
G01 X19.0956 Y18.1684
G01 X19.2657 Y18.2875
G01 X19.4125 Y18.4344
G01 X19.5316 Y18.6044
G01 X19.6193 Y18.7926
G01 X19.6311 Y18.8366
G01 X19.3375 Y18.8366
G01 X19.3055 Y18.7694
G01 X19.2595 Y18.6925
G01 X19.2061 Y18.6205
G01 X19.1459 Y18.5541
G01 X19.0795 Y18.4939
G01 X19.0075 Y18.4405
G01 X18.9306 Y18.3945
G01 X18.8634 Y18.3625
G00 Z2.0000
G00 X17.6625 Y18.8366
G01 F60.00
G01 Z-0.0500
G01 F120.00
G01 X17.3689 Y18.8366
G01 X17.3807 Y18.7926
G01 X17.4684 Y18.6044
G01 X17.5875 Y18.4344
G01 X17.7344 Y18.2875
G01 X17.9044 Y18.1684
G01 X18.0926 Y18.0807
G01 X18.1366 Y18.0689
G01 X18.1366 Y18.3625
G01 X18.0694 Y18.3945
G01 X17.9925 Y18.4405
G01 X17.9205 Y18.4939
G01 X17.8541 Y18.5541
G01 X17.7939 Y18.6205
G01 X17.7405 Y18.6925
G01 X17.6945 Y18.7694
G01 X17.6625 Y18.8366
G00 Z2.0000
G00 X17.6625 Y19.5634
G01 F60.00
G01 Z-0.0500
G01 F120.00
G01 X17.6945 Y19.6306
G01 X17.7405 Y19.7075
G01 X17.7939 Y19.7795
G01 X17.8541 Y19.8459
G01 X17.9205 Y19.9061
G01 X17.9925 Y19.9595
G01 X18.0694 Y20.0055
G01 X18.1366 Y20.0375
G01 X18.1366 Y20.3311
G01 X18.0926 Y20.3193
G01 X17.9044 Y20.2316
G01 X17.7344 Y20.1125
G01 X17.5875 Y19.9657
G01 X17.4684 Y19.7956
G01 X17.3807 Y19.6074
G01 X17.3689 Y19.5634
G01 X17.6625 Y19.5634
G00 Z2.0000
G00 X18.8634 Y20.0375
G01 F60.00
G01 Z-0.0500
G01 F120.00
G01 X18.9306 Y20.0055
G01 X19.0075 Y19.9595
G01 X19.0795 Y19.9061
G01 X19.1459 Y19.8459
G01 X19.2061 Y19.7795
G01 X19.2595 Y19.7075
G01 X19.3055 Y19.6306
G01 X19.3375 Y19.5634
G01 X19.6311 Y19.5634
G01 X19.6193 Y19.6074
G01 X19.5316 Y19.7956
G01 X19.4125 Y19.9657
G01 X19.2657 Y20.1125
G01 X19.0956 Y20.2316
G01 X18.9074 Y20.3193
G01 X18.8634 Y20.3311
G01 X18.8634 Y20.0375
G00 Z2.0000
G00 X18.2624 Y28.4635
G01 F60.00
G01 Z-0.0500
G01 F120.00
G01 X18.2286 Y28.4794
G01 X18.1980 Y28.4977
G01 X18.1694 Y28.5190
G01 X18.1429 Y28.5429
G01 X16.0044 Y30.6815
G01 X13.2465 Y30.6815
G01 X13.2901 Y30.6706
G01 X13.2981 Y30.6682
G01 X13.3747 Y30.6409
G01 X13.3824 Y30.6378
G01 X13.4609 Y30.6005
G01 X13.5355 Y30.5560
G01 X13.5423 Y30.5513
G01 X13.6098 Y30.5011
G01 X13.6722 Y30.4447
G01 X13.6800 Y30.4368
G01 X13.7328 Y30.3787
G01 X13.7381 Y30.3723
G01 X13.7898 Y30.3025
G01 X13.8359 Y30.2256
G01 X13.8742 Y30.1445
G01 X13.9027 Y30.0654
G01 X13.9059 Y30.0548
G01 X13.9250 Y29.9786
G01 X13.9271 Y29.9677
G01 X13.9393 Y29.8845
G01 X13.9437 Y29.7950
G01 X13.9393 Y29.7055
G01 X13.9271 Y29.6223
G01 X13.9250 Y29.6114
G01 X13.9059 Y29.5352
G01 X13.9027 Y29.5246
G01 X13.8742 Y29.4455
G01 X13.8359 Y29.3644
G01 X13.7898 Y29.2875
G01 X13.7381 Y29.2177
G01 X13.7328 Y29.2113
G01 X13.6800 Y29.1532
G01 X13.6722 Y29.1453
G01 X13.6098 Y29.0889
G01 X13.5423 Y29.0387
G01 X13.5355 Y29.0340
G01 X13.4609 Y28.9895
G01 X13.3824 Y28.9522
G01 X13.3747 Y28.9491
G01 X13.2981 Y28.9218
G01 X13.2901 Y28.9194
G01 X13.2465 Y28.9085
G01 X13.5481 Y28.9085
G01 X13.5837 Y28.9068
G01 X13.6190 Y28.9015
G01 X13.6536 Y28.8929
G01 X13.6872 Y28.8809
G01 X13.7170 Y28.8669
G01 X13.7454 Y28.8502
G01 X13.7546 Y28.8441
G01 X13.7787 Y28.8260
G01 X13.8032 Y28.8040
G01 X14.1437 Y28.4635
G01 X18.2624 Y28.4635
G00 Z2.0000
G00 X18.8634 Y34.0375
G01 F60.00
G01 Z-0.0500
G01 F120.00
G01 X18.9306 Y34.0055
G01 X19.0075 Y33.9595
G01 X19.0795 Y33.9061
G01 X19.1459 Y33.8459
G01 X19.2061 Y33.7795
G01 X19.2595 Y33.7075
G01 X19.3055 Y33.6306
G01 X19.3375 Y33.5634
G01 X19.6311 Y33.5634
G01 X19.6193 Y33.6074
G01 X19.5316 Y33.7956
G01 X19.4125 Y33.9657
G01 X19.2657 Y34.1125
G01 X19.0956 Y34.2316
G01 X18.9074 Y34.3193
G01 X18.8634 Y34.3311
G01 X18.8634 Y34.0375
G00 Z2.0000
G00 X12.1439 Y35.1188
G01 F60.00
G01 Z-0.0500
G01 F120.00
G01 X12.1439 Y34.7702
G01 X12.4656 Y34.4485
G01 X12.8141 Y34.4485
G01 X12.7705 Y34.4594
G01 X12.7625 Y34.4618
G01 X12.6834 Y34.4901
G01 X12.6757 Y34.4934
G01 X12.6047 Y34.5270
G01 X12.5973 Y34.5308
G01 X12.5229 Y34.5755
G01 X12.4553 Y34.6255
G01 X12.4467 Y34.6326
G01 X12.3845 Y34.6891
G01 X12.3279 Y34.7513
G01 X12.3208 Y34.7599
G01 X12.2709 Y34.8275
G01 X12.2261 Y34.9020
G01 X12.2223 Y34.9094
G01 X12.1887 Y34.9804
G01 X12.1854 Y34.9880
G01 X12.1571 Y35.0672
G01 X12.1548 Y35.0752
G01 X12.1439 Y35.1188
G00 Z2.0000
G00 X9.5771 Y36.7256
G01 F60.00
G01 Z-0.0500
G01 F120.00
G01 X9.5771 Y36.7144
G01 X9.5813 Y36.6305
G01 X9.5945 Y36.5418
G01 X9.6163 Y36.4549
G01 X9.6465 Y36.3705
G01 X9.6848 Y36.2894
G01 X9.7309 Y36.2125
G01 X9.7843 Y36.1405
G01 X9.8445 Y36.0741
G01 X9.9109 Y36.0139
G01 X9.9829 Y35.9605
G01 X10.0598 Y35.9145
G01 X10.1408 Y35.8761
G01 X10.2252 Y35.8459
G01 X10.3121 Y35.8242
G01 X10.4008 Y35.8110
G01 X10.4903 Y35.8066
G01 X10.5799 Y35.8110
G01 X10.6685 Y35.8242
G01 X10.7555 Y35.8459
G01 X10.8399 Y35.8761
G01 X10.9209 Y35.9145
G01 X10.9978 Y35.9605
G01 X11.0698 Y36.0139
G01 X11.1362 Y36.0741
G01 X11.1964 Y36.1405
G01 X11.2498 Y36.2125
G01 X11.2959 Y36.2894
G01 X11.3342 Y36.3705
G01 X11.3644 Y36.4549
G01 X11.3862 Y36.5418
G01 X11.3993 Y36.6305
G01 X11.4037 Y36.7200
G01 X11.3993 Y36.8095
G01 X11.3862 Y36.8982
G01 X11.3644 Y36.9851
G01 X11.3342 Y37.0695
G01 X11.2959 Y37.1506
G01 X11.2498 Y37.2275
G01 X11.1964 Y37.2995
G01 X11.1362 Y37.3659
G01 X11.0698 Y37.4261
G01 X10.9978 Y37.4795
G01 X10.9209 Y37.5255
G01 X10.8399 Y37.5639
G01 X10.7555 Y37.5941
G01 X10.6685 Y37.6158
G01 X10.5799 Y37.6290
G01 X10.4903 Y37.6334
G01 X10.4008 Y37.6290
G01 X10.3121 Y37.6158
G01 X10.2252 Y37.5941
G01 X10.1408 Y37.5639
G01 X10.0598 Y37.5255
G01 X9.9829 Y37.4795
G01 X9.9109 Y37.4261
G01 X9.8445 Y37.3659
G01 X9.7843 Y37.2995
G01 X9.7309 Y37.2275
G01 X9.6848 Y37.1506
G01 X9.6465 Y37.0695
G01 X9.6163 Y36.9851
G01 X9.5945 Y36.8982
G01 X9.5813 Y36.8095
G01 X9.5771 Y36.7256
G00 Z2.0000
G00 X9.5771 Y39.4956
G01 F60.00
G01 Z-0.0500
G01 F120.00
G01 X9.5771 Y39.4844
G01 X9.5813 Y39.4005
G01 X9.5945 Y39.3118
G01 X9.6163 Y39.2249
G01 X9.6465 Y39.1405
G01 X9.6848 Y39.0594
G01 X9.7309 Y38.9825
G01 X9.7843 Y38.9105
G01 X9.8445 Y38.8441
G01 X9.9109 Y38.7839
G01 X9.9829 Y38.7305
G01 X10.0598 Y38.6845
G01 X10.1408 Y38.6461
G01 X10.2252 Y38.6159
G01 X10.3121 Y38.5942
G01 X10.4008 Y38.5810
G01 X10.4903 Y38.5766
G01 X10.5799 Y38.5810
G01 X10.6685 Y38.5942
G01 X10.7555 Y38.6159
G01 X10.8399 Y38.6461
G01 X10.9209 Y38.6845
G01 X10.9978 Y38.7305
G01 X11.0698 Y38.7839
G01 X11.1362 Y38.8441
G01 X11.1964 Y38.9105
G01 X11.2498 Y38.9825
G01 X11.2959 Y39.0594
G01 X11.3342 Y39.1405
G01 X11.3644 Y39.2249
G01 X11.3862 Y39.3118
G01 X11.3993 Y39.4005
G01 X11.4037 Y39.4900
G01 X11.3993 Y39.5795
G01 X11.3862 Y39.6682
G01 X11.3644 Y39.7551
G01 X11.3342 Y39.8395
G01 X11.2959 Y39.9206
G01 X11.2498 Y39.9975
G01 X11.1964 Y40.0695
G01 X11.1362 Y40.1359
G01 X11.0698 Y40.1961
G01 X10.9978 Y40.2495
G01 X10.9209 Y40.2955
G01 X10.8399 Y40.3339
G01 X10.7555 Y40.3641
G01 X10.6685 Y40.3858
G01 X10.5799 Y40.3990
G01 X10.4903 Y40.4034
G01 X10.4008 Y40.3990
G01 X10.3121 Y40.3858
G01 X10.2252 Y40.3641
G01 X10.1408 Y40.3339
G01 X10.0598 Y40.2955
G01 X9.9829 Y40.2495
G01 X9.9109 Y40.1961
G01 X9.8445 Y40.1359
G01 X9.7843 Y40.0695
G01 X9.7309 Y39.9975
G01 X9.6848 Y39.9206
G01 X9.6465 Y39.8395
G01 X9.6163 Y39.7551
G01 X9.5945 Y39.6682
G01 X9.5813 Y39.5795
G01 X9.5771 Y39.4956
G00 Z2.0000
G00 X7.6588 Y41.8188
G01 F60.00
G01 Z-0.0500
G01 F120.00
G01 X7.6611 Y41.8027
G01 X7.6629 Y41.7737
G01 X7.6629 Y31.3109
G01 X7.6608 Y31.2374
G01 X7.6614 Y31.2320
G01 X7.6776 Y31.1637
G01 X7.6929 Y31.0903
G01 X7.6943 Y31.0866
G01 X7.7272 Y31.0209
G01 X7.7569 Y30.9572
G01 X7.7598 Y30.9526
G01 X7.8049 Y30.8988
G01 X7.8233 Y30.8757
G01 X7.8331 Y30.8652
G01 X7.8598 Y30.8334
G01 X7.8728 Y30.8236
G01 X7.8945 Y30.8045
G01 X9.2118 Y29.4872
G01 X9.2623 Y29.4338
G01 X9.2665 Y29.4303
G01 X9.3290 Y29.3917
G01 X9.3984 Y29.3461
G01 X9.4054 Y29.3411
G01 X9.4162 Y29.3316
G01 X9.4570 Y29.2888
G01 X9.4642 Y29.2803
G01 X9.4706 Y29.2713
G01 X9.4773 Y29.2591
G01 X9.4806 Y29.2514
G01 X9.4833 Y29.2436
G01 X9.5025 Y29.1677
G01 X9.5044 Y29.1566
G01 X9.5052 Y29.1454
G01 X9.5049 Y29.1341
G01 X9.5029 Y29.1202
G01 X9.4993 Y29.1066
G01 X9.4770 Y29.0404
G01 X9.4730 Y29.0303
G01 X9.4668 Y29.0184
G01 X9.4583 Y29.0058
G01 X9.3706 Y28.8176
G01 X9.3168 Y28.6169
G01 X9.2987 Y28.4100
G01 X9.3168 Y28.2031
G01 X9.3706 Y28.0024
G01 X9.4583 Y27.8142
G01 X9.5775 Y27.6440
G01 X9.7244 Y27.4972
G01 X9.8945 Y27.3780
G01 X10.0828 Y27.2902
G01 X10.2168 Y27.2543
G01 X10.2246 Y27.2519
G01 X10.2346 Y27.2479
G01 X10.2746 Y27.2296
G01 X10.2821 Y27.2256
G01 X10.2916 Y27.2194
G01 X10.3026 Y27.2103
G01 X10.3123 Y27.1999
G01 X10.3586 Y27.1438
G01 X10.3651 Y27.1346
G01 X10.3719 Y27.1223
G01 X10.3752 Y27.1145
G01 X10.3779 Y27.1065
G01 X10.3812 Y27.0928
G01 X10.3908 Y27.0123
G01 X10.3909 Y26.9982
G01 X10.3892 Y26.9842
G01 X10.3859 Y26.9706
G01 X10.3809 Y26.9574
G01 X10.3491 Y26.8920
G01 X10.3437 Y26.8822
G01 X10.3373 Y26.8729
G01 X10.3320 Y26.8664
G01 X10.3241 Y26.8583
G01 X10.3155 Y26.8511
G01 X10.3061 Y26.8448
G01 X10.2465 Y26.8084
G01 X10.2394 Y26.8044
G01 X10.2321 Y26.8010
G01 X10.2246 Y26.7981
G01 X10.2168 Y26.7957
G01 X10.0828 Y26.7598
G01 X9.8945 Y26.6720
G01 X9.7244 Y26.5528
G01 X9.5775 Y26.4060
G01 X9.4583 Y26.2358
G01 X9.3706 Y26.0476
G01 X9.3168 Y25.8469
G01 X9.2987 Y25.6400
G01 X9.3168 Y25.4331
G01 X9.3706 Y25.2324
G01 X9.4583 Y25.0442
G01 X9.5775 Y24.8740
G01 X9.7244 Y24.7272
G01 X9.8945 Y24.6080
G01 X10.0828 Y24.5202
G01 X10.2168 Y24.4843
G01 X10.2246 Y24.4819
G01 X10.2346 Y24.4779
G01 X10.2746 Y24.4596
G01 X10.2845 Y24.4541
G01 X10.2939 Y24.4477
G01 X10.3026 Y24.4403
G01 X10.3105 Y24.4321
G01 X10.3568 Y24.3760
G01 X10.3651 Y24.3646
G01 X10.3719 Y24.3523
G01 X10.3752 Y24.3445
G01 X10.3779 Y24.3365
G01 X10.3812 Y24.3229
G01 X10.3903 Y24.2479
G01 X10.3909 Y24.2395
G01 X10.3907 Y24.2254
G01 X10.3887 Y24.2115
G01 X10.3850 Y24.1979
G01 X10.3797 Y24.1849
G01 X10.3491 Y24.1220
G01 X10.3437 Y24.1122
G01 X10.3373 Y24.1029
G01 X10.3320 Y24.0964
G01 X10.3241 Y24.0883
G01 X10.3155 Y24.0811
G01 X10.3062 Y24.0748
G01 X10.2465 Y24.0384
G01 X10.2394 Y24.0344
G01 X10.2321 Y24.0310
G01 X10.2246 Y24.0281
G01 X10.2168 Y24.0257
G01 X10.0828 Y23.9898
G01 X9.8945 Y23.9020
G01 X9.7244 Y23.7828
G01 X9.5775 Y23.6360
G01 X9.4583 Y23.4658
G01 X9.3706 Y23.2776
G01 X9.3168 Y23.0769
G01 X9.2987 Y22.8700
G01 X9.3168 Y22.6631
G01 X9.3706 Y22.4624
G01 X9.4583 Y22.2742
G01 X9.5775 Y22.1040
G01 X9.7244 Y21.9572
G01 X9.8945 Y21.8380
G01 X10.0828 Y21.7502
G01 X10.2168 Y21.7143
G01 X10.2246 Y21.7119
G01 X10.2346 Y21.7079
G01 X10.2746 Y21.6896
G01 X10.2845 Y21.6841
G01 X10.2939 Y21.6777
G01 X10.3026 Y21.6703
G01 X10.3105 Y21.6621
G01 X10.3568 Y21.6060
G01 X10.3651 Y21.5946
G01 X10.3719 Y21.5823
G01 X10.3771 Y21.5692
G01 X10.3794 Y21.5611
G01 X10.3812 Y21.5528
G01 X10.3903 Y21.4779
G01 X10.3909 Y21.4695
G01 X10.3907 Y21.4554
G01 X10.3887 Y21.4415
G01 X10.3850 Y21.4279
G01 X10.3797 Y21.4149
G01 X10.3491 Y21.3520
G01 X10.3437 Y21.3422
G01 X10.3390 Y21.3351
G01 X10.3320 Y21.3264
G01 X10.3241 Y21.3183
G01 X10.3155 Y21.3111
G01 X10.3061 Y21.3048
G01 X10.2465 Y21.2684
G01 X10.2394 Y21.2644
G01 X10.2321 Y21.2610
G01 X10.2246 Y21.2581
G01 X10.2168 Y21.2557
G01 X10.0828 Y21.2198
G01 X9.8945 Y21.1320
G01 X9.7244 Y21.0128
G01 X9.5775 Y20.8660
G01 X9.4583 Y20.6958
G01 X9.3706 Y20.5076
G01 X9.3168 Y20.3069
G01 X9.2987 Y20.1000
G01 X9.3168 Y19.8931
G01 X9.3706 Y19.6924
G01 X9.4583 Y19.5042
G01 X9.5775 Y19.3340
G01 X9.7244 Y19.1872
G01 X9.8945 Y19.0680
G01 X10.0828 Y18.9802
G01 X10.2168 Y18.9443
G01 X10.2246 Y18.9419
G01 X10.2346 Y18.9379
G01 X10.2746 Y18.9196
G01 X10.2845 Y18.9141
G01 X10.2939 Y18.9077
G01 X10.3026 Y18.9003
G01 X10.3105 Y18.8921
G01 X10.3568 Y18.8360
G01 X10.3651 Y18.8246
G01 X10.3719 Y18.8123
G01 X10.3752 Y18.8045
G01 X10.3779 Y18.7965
G01 X10.3812 Y18.7829
G01 X10.3908 Y18.7023
G01 X10.3909 Y18.6882
G01 X10.3892 Y18.6742
G01 X10.3859 Y18.6606
G01 X10.3809 Y18.6474
G01 X10.3491 Y18.5820
G01 X10.3437 Y18.5722
G01 X10.3373 Y18.5629
G01 X10.3301 Y18.5543
G01 X10.3220 Y18.5464
G01 X10.3155 Y18.5411
G01 X10.3062 Y18.5348
G01 X10.2465 Y18.4984
G01 X10.2394 Y18.4944
G01 X10.2321 Y18.4910
G01 X10.2246 Y18.4881
G01 X10.2168 Y18.4857
G01 X10.0828 Y18.4498
G01 X9.8945 Y18.3620
G01 X9.7244 Y18.2428
G01 X9.5775 Y18.0960
G01 X9.4583 Y17.9258
G01 X9.3706 Y17.7376
G01 X9.3168 Y17.5369
G01 X9.2987 Y17.3300
G01 X9.3168 Y17.1231
G01 X9.3706 Y16.9224
G01 X9.4583 Y16.7342
G01 X9.5775 Y16.5640
G01 X9.7244 Y16.4172
G01 X9.8945 Y16.2980
G01 X10.0828 Y16.2102
G01 X10.2168 Y16.1743
G01 X10.2246 Y16.1719
G01 X10.2346 Y16.1679
G01 X10.2746 Y16.1496
G01 X10.2845 Y16.1441
G01 X10.2939 Y16.1377
G01 X10.3026 Y16.1303
G01 X10.3105 Y16.1221
G01 X10.3568 Y16.0660
G01 X10.3651 Y16.0546
G01 X10.3719 Y16.0423
G01 X10.3771 Y16.0292
G01 X10.3794 Y16.0211
G01 X10.3812 Y16.0128
G01 X10.3906 Y15.9351
G01 X10.3910 Y15.9210
G01 X10.3904 Y15.9126
G01 X10.3892 Y15.9042
G01 X10.3859 Y15.8906
G01 X10.3809 Y15.8774
G01 X10.3491 Y15.8120
G01 X10.3437 Y15.8022
G01 X10.3373 Y15.7929
G01 X10.3320 Y15.7864
G01 X10.3241 Y15.7783
G01 X10.3155 Y15.7711
G01 X10.3061 Y15.7648
G01 X10.2465 Y15.7284
G01 X10.2394 Y15.7244
G01 X10.2321 Y15.7210
G01 X10.2246 Y15.7181
G01 X10.2168 Y15.7157
G01 X10.0828 Y15.6798
G01 X9.8945 Y15.5920
G01 X9.7244 Y15.4728
G01 X9.5775 Y15.3260
G01 X9.4583 Y15.1558
G01 X9.3706 Y14.9676
G01 X9.3168 Y14.7669
G01 X9.2987 Y14.5600
G01 X9.3168 Y14.3531
G01 X9.3706 Y14.1524
G01 X9.4583 Y13.9642
G01 X9.5775 Y13.7940
G01 X9.7244 Y13.6472
G01 X9.8945 Y13.5280
G01 X10.0828 Y13.4402
G01 X10.2168 Y13.4043
G01 X10.2246 Y13.4019
G01 X10.2346 Y13.3979
G01 X10.2746 Y13.3796
G01 X10.2845 Y13.3741
G01 X10.2939 Y13.3677
G01 X10.3026 Y13.3603
G01 X10.3105 Y13.3521
G01 X10.3568 Y13.2960
G01 X10.3651 Y13.2846
G01 X10.3719 Y13.2723
G01 X10.3771 Y13.2592
G01 X10.3794 Y13.2511
G01 X10.3812 Y13.2428
G01 X10.3903 Y13.1679
G01 X10.3909 Y13.1595
G01 X10.3910 Y13.1510
G01 X10.3897 Y13.1370
G01 X10.3867 Y13.1233
G01 X10.3841 Y13.1152
G01 X10.3809 Y13.1074
G01 X10.3491 Y13.0420
G01 X10.3437 Y13.0322
G01 X10.3390 Y13.0251
G01 X10.3320 Y13.0164
G01 X10.3241 Y13.0083
G01 X10.3155 Y13.0011
G01 X10.3061 Y12.9948
G01 X10.2465 Y12.9584
G01 X10.2394 Y12.9544
G01 X10.2321 Y12.9510
G01 X10.2246 Y12.9481
G01 X10.2168 Y12.9457
G01 X10.0828 Y12.9098
G01 X9.8945 Y12.8220
G01 X9.7244 Y12.7028
G01 X9.5775 Y12.5560
G01 X9.4583 Y12.3858
G01 X9.3706 Y12.1976
G01 X9.3168 Y11.9969
G01 X9.2987 Y11.7900
G01 X9.3168 Y11.5831
G01 X9.3706 Y11.3824
G01 X9.4583 Y11.1942
G01 X9.5775 Y11.0240
G01 X9.7244 Y10.8772
G01 X9.8945 Y10.7580
G01 X10.0828 Y10.6702
G01 X10.2168 Y10.6343
G01 X10.2246 Y10.6319
G01 X10.2346 Y10.6279
G01 X10.2746 Y10.6096
G01 X10.2821 Y10.6056
G01 X10.2893 Y10.6010
G01 X10.3005 Y10.5922
G01 X10.3105 Y10.5821
G01 X10.3568 Y10.5260
G01 X10.3619 Y10.5193
G01 X10.3693 Y10.5073
G01 X10.3742 Y10.4972
G01 X10.3779 Y10.4865
G01 X10.3812 Y10.4729
G01 X10.3903 Y10.3979
G01 X10.3909 Y10.3895
G01 X10.3910 Y10.3810
G01 X10.3904 Y10.3726
G01 X10.3892 Y10.3642
G01 X10.3874 Y10.3560
G01 X10.3841 Y10.3452
G01 X10.3809 Y10.3374
G01 X10.3465 Y10.2670
G01 X10.3406 Y10.2574
G01 X10.3356 Y10.2507
G01 X10.3281 Y10.2422
G01 X10.3199 Y10.2346
G01 X10.3132 Y10.2294
G01 X10.3062 Y10.2248
G01 X10.2442 Y10.1870
G01 X10.2321 Y10.1810
G01 X10.2246 Y10.1781
G01 X10.2168 Y10.1757
G01 X10.0828 Y10.1398
G01 X9.8945 Y10.0520
G01 X9.7244 Y9.9328
G01 X9.5775 Y9.7860
G01 X9.4583 Y9.6158
G01 X9.3706 Y9.4276
G01 X9.3168 Y9.2269
G01 X9.2987 Y9.0200
G01 X9.3168 Y8.8131
G01 X9.3706 Y8.6124
G01 X9.4583 Y8.4242
G01 X9.5775 Y8.2540
G01 X9.7244 Y8.1072
G01 X9.8945 Y7.9880
G01 X10.0828 Y7.9002
G01 X10.2230 Y7.8625
G01 X10.2355 Y7.8577
G01 X10.2730 Y7.8406
G01 X10.2806 Y7.8367
G01 X10.2903 Y7.8308
G01 X10.2971 Y7.8256
G01 X10.3056 Y7.8180
G01 X10.3114 Y7.8118
G01 X10.3613 Y7.7513
G01 X10.3689 Y7.7395
G01 X10.3740 Y7.7295
G01 X10.3789 Y7.7163
G01 X10.3821 Y7.7026
G01 X10.3912 Y7.6276
G01 X10.3919 Y7.6192
G01 X10.3920 Y7.6108
G01 X10.3914 Y7.6023
G01 X10.3902 Y7.5940
G01 X10.3869 Y7.5803
G01 X10.3830 Y7.5698
G01 X10.3488 Y7.4993
G01 X10.3432 Y7.4895
G01 X10.3383 Y7.4826
G01 X10.3329 Y7.4761
G01 X10.3271 Y7.4700
G01 X10.3187 Y7.4626
G01 X10.3095 Y7.4560
G01 X10.2451 Y7.4168
G01 X10.2331 Y7.4107
G01 X10.2255 Y7.4078
G01 X10.2178 Y7.4054
G01 X10.0829 Y7.3693
G01 X9.9479 Y7.3063
G01 X10.1551 Y7.0991
G01 X10.2252 Y7.1241
G01 X10.3121 Y7.1458
G01 X10.4008 Y7.1590
G01 X10.4903 Y7.1634
G01 X10.5799 Y7.1590
G01 X10.6685 Y7.1458
G01 X10.7555 Y7.1241
G01 X10.8255 Y7.0991
G01 X11.0327 Y7.3063
G01 X10.8977 Y7.3693
G01 X10.7629 Y7.4054
G01 X10.7501 Y7.4097
G01 X10.7026 Y7.4314
G01 X10.6904 Y7.4387
G01 X10.6792 Y7.4475
G01 X10.6731 Y7.4535
G01 X10.6674 Y7.4599
G01 X10.6194 Y7.5182
G01 X10.6131 Y7.5275
G01 X10.6091 Y7.5349
G01 X10.6055 Y7.5426
G01 X10.6026 Y7.5505
G01 X10.6003 Y7.5586
G01 X10.5981 Y7.5697
G01 X10.5894 Y7.6418
G01 X10.5888 Y7.6503
G01 X10.5888 Y7.6615
G01 X10.5900 Y7.6727
G01 X10.5923 Y7.6837
G01 X10.5956 Y7.6945
G01 X10.6000 Y7.7049
G01 X10.6306 Y7.7677
G01 X10.6360 Y7.7776
G01 X10.6424 Y7.7869
G01 X10.6496 Y7.7955
G01 X10.6598 Y7.8051
G01 X10.6688 Y7.8119
G01 X10.7332 Y7.8513
G01 X10.7403 Y7.8553
G01 X10.7476 Y7.8588
G01 X10.7551 Y7.8617
G01 X10.7629 Y7.8641
G01 X10.8979 Y7.9002
G01 X11.0861 Y7.9880
G01 X11.2563 Y8.1072
G01 X11.4032 Y8.2540
G01 X11.5223 Y8.4242
G01 X11.6101 Y8.6124
G01 X11.6639 Y8.8131
G01 X11.6820 Y9.0200
G01 X11.6639 Y9.2269
G01 X11.6101 Y9.4276
G01 X11.5223 Y9.6158
G01 X11.4032 Y9.7860
G01 X11.2563 Y9.9328
G01 X11.0861 Y10.0520
G01 X10.8979 Y10.1398
G01 X10.7638 Y10.1757
G01 X10.7561 Y10.1781
G01 X10.7461 Y10.1821
G01 X10.7061 Y10.2004
G01 X10.6961 Y10.2059
G01 X10.6867 Y10.2123
G01 X10.6781 Y10.2197
G01 X10.6702 Y10.2279
G01 X10.6239 Y10.2840
G01 X10.6187 Y10.2907
G01 X10.6141 Y10.2978
G01 X10.6076 Y10.3103
G01 X10.6027 Y10.3235
G01 X10.6006 Y10.3316
G01 X10.5991 Y10.3399
G01 X10.5904 Y10.4121
G01 X10.5896 Y10.4262
G01 X10.5900 Y10.4346
G01 X10.5914 Y10.4458
G01 X10.5932 Y10.4540
G01 X10.5966 Y10.4648
G01 X10.6010 Y10.4751
G01 X10.6328 Y10.5405
G01 X10.6400 Y10.5526
G01 X10.6468 Y10.5615
G01 X10.6566 Y10.5717
G01 X10.6675 Y10.5806
G01 X10.6745 Y10.5852
G01 X10.7342 Y10.6216
G01 X10.7412 Y10.6256
G01 X10.7486 Y10.6290
G01 X10.7561 Y10.6319
G01 X10.7638 Y10.6343
G01 X10.8979 Y10.6702
G01 X11.0861 Y10.7580
G01 X11.2563 Y10.8772
G01 X11.4032 Y11.0240
G01 X11.5223 Y11.1942
G01 X11.6101 Y11.3824
G01 X11.6639 Y11.5831
G01 X11.6820 Y11.7900
G01 X11.6639 Y11.9969
G01 X11.6101 Y12.1976
G01 X11.5223 Y12.3858
G01 X11.4032 Y12.5560
G01 X11.2563 Y12.7028
G01 X11.0861 Y12.8220
G01 X10.8979 Y12.9098
G01 X10.7638 Y12.9457
G01 X10.7561 Y12.9481
G01 X10.7461 Y12.9521
G01 X10.7061 Y12.9704
G01 X10.6961 Y12.9759
G01 X10.6868 Y12.9823
G01 X10.6781 Y12.9897
G01 X10.6702 Y12.9979
G01 X10.6239 Y13.0540
G01 X10.6156 Y13.0654
G01 X10.6113 Y13.0727
G01 X10.6076 Y13.0803
G01 X10.6045 Y13.0881
G01 X10.6019 Y13.0962
G01 X10.5991 Y13.1099
G01 X10.5904 Y13.1821
G01 X10.5896 Y13.1961
G01 X10.5902 Y13.2074
G01 X10.5914 Y13.2158
G01 X10.5932 Y13.2240
G01 X10.5966 Y13.2348
G01 X10.6010 Y13.2451
G01 X10.6328 Y13.3105
G01 X10.6400 Y13.3226
G01 X10.6487 Y13.3336
G01 X10.6587 Y13.3436
G01 X10.6675 Y13.3506
G01 X10.6745 Y13.3552
G01 X10.7342 Y13.3916
G01 X10.7412 Y13.3956
G01 X10.7486 Y13.3990
G01 X10.7561 Y13.4019
G01 X10.7638 Y13.4043
G01 X10.8979 Y13.4402
G01 X11.0861 Y13.5280
G01 X11.2563 Y13.6472
G01 X11.4032 Y13.7940
G01 X11.5223 Y13.9642
G01 X11.6101 Y14.1524
G01 X11.6639 Y14.3531
G01 X11.6820 Y14.5600
G01 X11.6639 Y14.7669
G01 X11.6101 Y14.9676
G01 X11.5223 Y15.1558
G01 X11.4032 Y15.3260
G01 X11.2563 Y15.4728
G01 X11.0861 Y15.5920
G01 X10.8979 Y15.6798
G01 X10.7638 Y15.7157
G01 X10.7561 Y15.7181
G01 X10.7461 Y15.7221
G01 X10.7061 Y15.7404
G01 X10.6961 Y15.7459
G01 X10.6868 Y15.7523
G01 X10.6781 Y15.7597
G01 X10.6702 Y15.7679
G01 X10.6239 Y15.8240
G01 X10.6156 Y15.8354
G01 X10.6113 Y15.8427
G01 X10.6076 Y15.8503
G01 X10.6045 Y15.8581
G01 X10.6019 Y15.8662
G01 X10.5991 Y15.8799
G01 X10.5904 Y15.9521
G01 X10.5896 Y15.9661
G01 X10.5902 Y15.9774
G01 X10.5914 Y15.9858
G01 X10.5932 Y15.9940
G01 X10.5966 Y16.0048
G01 X10.6010 Y16.0151
G01 X10.6328 Y16.0805
G01 X10.6400 Y16.0926
G01 X10.6487 Y16.1036
G01 X10.6566 Y16.1117
G01 X10.6675 Y16.1206
G01 X10.6745 Y16.1252
G01 X10.7342 Y16.1616
G01 X10.7412 Y16.1656
G01 X10.7486 Y16.1690
G01 X10.7561 Y16.1719
G01 X10.7638 Y16.1743
G01 X10.8979 Y16.2102
G01 X11.0861 Y16.2980
G01 X11.2563 Y16.4172
G01 X11.4032 Y16.5640
G01 X11.5223 Y16.7342
G01 X11.6101 Y16.9224
G01 X11.6639 Y17.1231
G01 X11.6820 Y17.3300
G01 X11.6639 Y17.5369
G01 X11.6101 Y17.7376
G01 X11.5223 Y17.9258
G01 X11.4032 Y18.0960
G01 X11.2563 Y18.2428
G01 X11.0861 Y18.3620
G01 X10.8979 Y18.4498
G01 X10.7638 Y18.4857
G01 X10.7561 Y18.4881
G01 X10.7461 Y18.4921
G01 X10.7061 Y18.5104
G01 X10.6961 Y18.5159
G01 X10.6868 Y18.5223
G01 X10.6781 Y18.5297
G01 X10.6702 Y18.5379
G01 X10.6239 Y18.5940
G01 X10.6156 Y18.6054
G01 X10.6113 Y18.6127
G01 X10.6076 Y18.6203
G01 X10.6045 Y18.6281
G01 X10.6019 Y18.6362
G01 X10.5991 Y18.6499
G01 X10.5904 Y18.7221
G01 X10.5896 Y18.7361
G01 X10.5902 Y18.7474
G01 X10.5914 Y18.7558
G01 X10.5932 Y18.7640
G01 X10.5966 Y18.7748
G01 X10.6010 Y18.7851
G01 X10.6328 Y18.8505
G01 X10.6400 Y18.8626
G01 X10.6468 Y18.8715
G01 X10.6566 Y18.8817
G01 X10.6675 Y18.8906
G01 X10.6745 Y18.8952
G01 X10.7342 Y18.9316
G01 X10.7412 Y18.9356
G01 X10.7486 Y18.9390
G01 X10.7561 Y18.9419
G01 X10.7638 Y18.9443
G01 X10.8979 Y18.9802
G01 X11.0861 Y19.0680
G01 X11.2563 Y19.1872
G01 X11.4032 Y19.3340
G01 X11.5223 Y19.5042
G01 X11.6101 Y19.6924
G01 X11.6639 Y19.8931
G01 X11.6820 Y20.1000
G01 X11.6639 Y20.3069
G01 X11.6101 Y20.5076
G01 X11.5223 Y20.6958
G01 X11.4032 Y20.8660
G01 X11.2563 Y21.0128
G01 X11.0861 Y21.1320
G01 X10.8979 Y21.2198
G01 X10.7638 Y21.2557
G01 X10.7561 Y21.2581
G01 X10.7461 Y21.2621
G01 X10.7036 Y21.2817
G01 X10.6937 Y21.2874
G01 X10.6823 Y21.2959
G01 X10.6760 Y21.3017
G01 X10.6702 Y21.3079
G01 X10.6221 Y21.3662
G01 X10.6141 Y21.3778
G01 X10.6076 Y21.3903
G01 X10.6027 Y21.4035
G01 X10.6006 Y21.4116
G01 X10.5991 Y21.4199
G01 X10.5904 Y21.4921
G01 X10.5896 Y21.5061
G01 X10.5902 Y21.5174
G01 X10.5914 Y21.5258
G01 X10.5932 Y21.5340
G01 X10.5966 Y21.5448
G01 X10.6010 Y21.5551
G01 X10.6328 Y21.6205
G01 X10.6400 Y21.6326
G01 X10.6468 Y21.6415
G01 X10.6566 Y21.6517
G01 X10.6675 Y21.6606
G01 X10.6745 Y21.6652
G01 X10.7342 Y21.7016
G01 X10.7412 Y21.7056
G01 X10.7486 Y21.7090
G01 X10.7561 Y21.7119
G01 X10.7638 Y21.7143
G01 X10.8979 Y21.7502
G01 X11.0861 Y21.8380
G01 X11.2563 Y21.9572
G01 X11.4032 Y22.1040
G01 X11.5223 Y22.2742
G01 X11.6101 Y22.4624
G01 X11.6639 Y22.6631
G01 X11.6820 Y22.8700
G01 X11.6639 Y23.0769
G01 X11.6101 Y23.2776
G01 X11.5223 Y23.4658
G01 X11.4032 Y23.6360
G01 X11.2563 Y23.7828
G01 X11.0861 Y23.9020
G01 X10.8979 Y23.9898
G01 X10.7638 Y24.0257
G01 X10.7561 Y24.0281
G01 X10.7461 Y24.0321
G01 X10.7036 Y24.0517
G01 X10.6937 Y24.0574
G01 X10.6823 Y24.0659
G01 X10.6760 Y24.0717
G01 X10.6702 Y24.0779
G01 X10.6221 Y24.1362
G01 X10.6141 Y24.1478
G01 X10.6076 Y24.1603
G01 X10.6027 Y24.1735
G01 X10.5995 Y24.1872
G01 X10.5904 Y24.2621
G01 X10.5896 Y24.2733
G01 X10.5900 Y24.2846
G01 X10.5914 Y24.2958
G01 X10.5932 Y24.3040
G01 X10.5966 Y24.3148
G01 X10.6010 Y24.3251
G01 X10.6315 Y24.3880
G01 X10.6369 Y24.3978
G01 X10.6451 Y24.4093
G01 X10.6545 Y24.4197
G01 X10.6652 Y24.4289
G01 X10.6745 Y24.4352
G01 X10.7342 Y24.4716
G01 X10.7412 Y24.4756
G01 X10.7486 Y24.4790
G01 X10.7561 Y24.4819
G01 X10.7638 Y24.4843
G01 X10.8979 Y24.5202
G01 X11.0861 Y24.6080
G01 X11.2563 Y24.7272
G01 X11.4032 Y24.8740
G01 X11.5223 Y25.0442
G01 X11.6101 Y25.2324
G01 X11.6639 Y25.4331
G01 X11.6820 Y25.6400
G01 X11.6639 Y25.8469
G01 X11.6101 Y26.0476
G01 X11.5223 Y26.2358
G01 X11.4032 Y26.4060
G01 X11.2563 Y26.5528
G01 X11.0861 Y26.6720
G01 X10.8979 Y26.7598
G01 X10.7638 Y26.7957
G01 X10.7561 Y26.7981
G01 X10.7461 Y26.8021
G01 X10.7036 Y26.8217
G01 X10.6937 Y26.8274
G01 X10.6845 Y26.8341
G01 X10.6760 Y26.8417
G01 X10.6702 Y26.8479
G01 X10.6221 Y26.9062
G01 X10.6171 Y26.9130
G01 X10.6127 Y26.9202
G01 X10.6088 Y26.9277
G01 X10.6055 Y26.9355
G01 X10.6012 Y26.9489
G01 X10.5991 Y26.9599
G01 X10.5899 Y27.0377
G01 X10.5897 Y27.0490
G01 X10.5902 Y27.0574
G01 X10.5920 Y27.0685
G01 X10.5940 Y27.0767
G01 X10.5966 Y27.0848
G01 X10.6010 Y27.0951
G01 X10.6315 Y27.1580
G01 X10.6369 Y27.1678
G01 X10.6433 Y27.1771
G01 X10.6525 Y27.1878
G01 X10.6608 Y27.1954
G01 X10.6721 Y27.2037
G01 X10.7365 Y27.2430
G01 X10.7486 Y27.2490
G01 X10.7561 Y27.2519
G01 X10.7638 Y27.2543
G01 X10.8979 Y27.2902
G01 X11.0861 Y27.3780
G01 X11.2563 Y27.4972
G01 X11.4032 Y27.6440
G01 X11.5223 Y27.8142
G01 X11.5390 Y27.8498
G01 X11.5442 Y27.8593
G01 X11.5487 Y27.8660
G01 X11.5823 Y27.9101
G01 X11.5877 Y27.9167
G01 X11.5977 Y27.9266
G01 X11.6043 Y27.9320
G01 X11.6113 Y27.9369
G01 X11.6186 Y27.9412
G01 X11.6262 Y27.9449
G01 X11.6952 Y27.9756
G01 X11.7032 Y27.9784
G01 X11.7113 Y27.9806
G01 X11.7197 Y27.9821
G01 X11.7280 Y27.9830
G01 X11.7365 Y27.9833
G01 X11.7477 Y27.9828
G01 X11.7943 Y27.9758
G01 X11.8053 Y27.9755
G01 X11.8164 Y27.9742
G01 X11.8299 Y27.9709
G01 X11.8698 Y27.9576
G01 X11.8800 Y27.9531
G01 X11.8898 Y27.9475
G01 X11.9475 Y27.9087
G01 X11.9584 Y27.9004
G01 X11.9644 Y27.8947
G01 X11.9701 Y27.8887
G01 X11.9752 Y27.8822
G01 X11.9799 Y27.8754
G01 X11.9865 Y27.8634
G01 X12.0173 Y27.7946
G01 X12.0203 Y27.7866
G01 X12.0227 Y27.7785
G01 X12.0249 Y27.7675
G01 X12.0258 Y27.7591
G01 X12.0261 Y27.7507
G01 X12.0255 Y27.7394
G01 X12.0143 Y27.6647
G01 X12.0128 Y27.6568
G01 X12.0107 Y27.6490
G01 X12.0081 Y27.6413
G01 X12.0050 Y27.6338
G01 X11.9110 Y27.4324
G01 X11.8573 Y27.2318
G01 X11.8392 Y27.0250
G01 X11.8573 Y26.8182
G01 X11.9110 Y26.6176
G01 X11.9740 Y26.4826
G01 X12.1812 Y26.6898
G01 X12.1563 Y26.7599
G01 X12.1357 Y26.8414
G01 X12.1335 Y26.8523
G01 X12.1220 Y26.9299
G01 X12.1209 Y26.9410
G01 X12.1169 Y27.0250
G01 X12.1213 Y27.1145
G01 X12.1335 Y27.1977
G01 X12.1357 Y27.2086
G01 X12.1563 Y27.2901
G01 X12.1845 Y27.3694
G01 X12.1887 Y27.3796
G01 X12.2248 Y27.4556
G01 X12.2679 Y27.5278
G01 X12.2741 Y27.5370
G01 X12.3243 Y27.6045
G01 X12.3806 Y27.6668
G01 X12.3885 Y27.6747
G01 X12.4467 Y27.7274
G01 X12.4553 Y27.7345
G01 X12.5229 Y27.7845
G01 X12.5998 Y27.8305
G01 X12.6808 Y27.8689
G01 X12.7599 Y27.8973
G01 X12.7705 Y27.9006
G01 X12.8521 Y27.9208
G01 X12.9353 Y27.9333
G01 X12.9464 Y27.9344
G01 X13.0275 Y27.9384
G01 X13.0359 Y27.9383
G01 X13.1199 Y27.9340
G01 X13.2030 Y27.9218
G01 X13.2140 Y27.9196
G01 X13.2955 Y27.8991
G01 X13.3747 Y27.8709
G01 X13.3850 Y27.8666
G01 X13.4609 Y27.8305
G01 X13.5378 Y27.7845
G01 X13.6054 Y27.7345
G01 X13.6140 Y27.7274
G01 X13.6722 Y27.6747
G01 X13.6800 Y27.6668
G01 X13.7364 Y27.6045
G01 X13.7866 Y27.5370
G01 X13.7928 Y27.5278
G01 X13.8359 Y27.4556
G01 X13.8719 Y27.3796
G01 X13.8762 Y27.3694
G01 X13.9044 Y27.2901
G01 X13.9250 Y27.2086
G01 X13.9271 Y27.1977
G01 X13.9393 Y27.1145
G01 X13.9437 Y27.0250
G01 X13.9397 Y26.9410
G01 X13.9387 Y26.9299
G01 X13.9271 Y26.8523
G01 X13.9250 Y26.8414
G01 X13.9044 Y26.7599
G01 X13.8795 Y26.6898
G01 X14.0867 Y26.4826
G01 X14.1496 Y26.6176
G01 X14.2034 Y26.8182
G01 X14.2215 Y27.0250
G01 X14.2057 Y27.2048
G01 X14.2054 Y27.2181
G01 X14.2065 Y27.2313
G01 X14.2177 Y27.2963
G01 X14.2201 Y27.3072
G01 X14.2227 Y27.3152
G01 X14.2258 Y27.3230
G01 X14.2308 Y27.3330
G01 X14.2368 Y27.3425
G01 X14.2419 Y27.3491
G01 X14.2914 Y27.4062
G01 X14.2993 Y27.4141
G01 X14.3104 Y27.4229
G01 X14.3175 Y27.4274
G01 X14.3249 Y27.4315
G01 X14.3326 Y27.4349
G01 X14.3405 Y27.4378
G01 X14.4155 Y27.4597
G01 X14.4288 Y27.4621
G01 X14.4395 Y27.4629
G01 X41.9408 Y27.4629
G01 X41.9499 Y27.4623
G01 X41.9845 Y27.4582
G01 X41.9980 Y27.4549
G01 X42.0085 Y27.4510
G01 X42.0185 Y27.4462
G01 X42.0845 Y27.4100
G01 X42.0956 Y27.4023
G01 X42.1056 Y27.3934
G01 X47.4636 Y22.0354
G01 X47.4803 Y22.0160
G01 X47.4871 Y22.0073
G01 X47.4942 Y21.9955
G01 X47.4989 Y21.9855
G01 X47.5243 Y21.9145
G01 X47.5268 Y21.9065
G01 X47.5287 Y21.8982
G01 X47.5303 Y21.8871
G01 X47.5308 Y21.8786
G01 X47.5305 Y21.8674
G01 X47.5285 Y21.8535
G01 X47.5112 Y21.7799
G01 X47.5069 Y21.7666
G01 X47.5022 Y21.7563
G01 X47.4949 Y21.7443
G01 X47.4899 Y21.7375
G01 X47.4844 Y21.7311
G01 X47.4302 Y21.6785
G01 X47.4196 Y21.6693
G01 X47.4102 Y21.6630
G01 X47.3978 Y21.6564
G01 X47.3846 Y21.6515
G01 X47.3737 Y21.6487
G01 X47.3025 Y21.6344
G01 X47.2945 Y21.6333
G01 X47.2837 Y21.6327
G01 X47.2664 Y21.6337
G01 X47.2371 Y21.6371
G01 X47.2227 Y21.6376
G01 X47.1813 Y21.6412
G01 X47.1652 Y21.6389
G01 X47.1363 Y21.6371
G01 X33.0109 Y21.6371
G01 X32.9375 Y21.6392
G01 X32.9320 Y21.6386
G01 X32.8605 Y21.6217
G01 X32.7917 Y21.6075
G01 X32.7866 Y21.6057
G01 X32.7238 Y21.5742
G01 X32.6572 Y21.5431
G01 X32.6528 Y21.5403
G01 X32.5989 Y21.4951
G01 X32.5757 Y21.4767
G01 X32.5652 Y21.4669
G01 X32.5334 Y21.4402
G01 X32.5236 Y21.4272
G01 X32.5045 Y21.4055
G01 X31.5455 Y20.4465
G01 X31.5349 Y20.4371
G01 X31.5026 Y20.4133
G01 X31.4934 Y20.4072
G01 X31.4862 Y20.4033
G01 X31.4736 Y20.3979
G01 X31.4604 Y20.3940
G01 X31.3866 Y20.3792
G01 X31.3732 Y20.3776
G01 X31.3651 Y20.3775
G01 X31.3570 Y20.3779
G01 X31.2000 Y20.3916
G01 X30.9931 Y20.3735
G01 X30.7924 Y20.3198
G01 X30.6042 Y20.2320
G01 X30.4340 Y20.1128
G01 X30.2872 Y19.9660
G01 X30.2662 Y19.9361
G01 X30.2592 Y19.9276
G01 X30.2535 Y19.9216
G01 X30.2190 Y19.8884
G01 X30.2108 Y19.8813
G01 X30.2042 Y19.8764
G01 X30.1949 Y19.8708
G01 X30.1876 Y19.8671
G01 X30.1801 Y19.8640
G01 X30.1723 Y19.8614
G01 X30.1027 Y19.8410
G01 X30.0895 Y19.8383
G01 X30.0814 Y19.8374
G01 X30.0733 Y19.8371
G01 X29.4609 Y19.8371
G01 X29.3859 Y19.8391
G01 X29.3820 Y19.8386
G01 X29.3105 Y19.8217
G01 X29.2403 Y19.8071
G01 X29.2366 Y19.8057
G01 X29.1709 Y19.7728
G01 X29.1072 Y19.7431
G01 X29.1026 Y19.7402
G01 X29.0489 Y19.6951
G01 X29.0257 Y19.6767
G01 X29.0152 Y19.6669
G01 X28.9834 Y19.6402
G01 X28.9736 Y19.6272
G01 X28.9545 Y19.6055
G01 X24.9032 Y15.5542
G01 X24.8863 Y15.5389
G01 X24.8795 Y15.5339
G01 X24.8722 Y15.5294
G01 X24.8621 Y15.5242
G01 X24.7983 Y15.4957
G01 X24.7879 Y15.4916
G01 X24.7770 Y15.4886
G01 X24.7659 Y15.4867
G01 X24.7519 Y15.4858
G01 X24.7406 Y15.4864
G01 X24.6660 Y15.4976
G01 X24.6554 Y15.4997
G01 X24.6476 Y15.5020
G01 X24.6400 Y15.5048
G01 X24.6076 Y15.5198
G01 X24.4069 Y15.5735
G01 X24.2000 Y15.5916
G01 X23.9931 Y15.5735
G01 X23.7924 Y15.5198
G01 X23.6042 Y15.4320
G01 X23.4340 Y15.3128
G01 X23.2872 Y15.1660
G01 X23.1680 Y14.9958
G01 X23.1436 Y14.9436
G01 X23.1395 Y14.9361
G01 X23.1349 Y14.9289
G01 X23.1278 Y14.9199
G01 X23.0833 Y14.8685
G01 X23.0776 Y14.8624
G01 X23.0694 Y14.8550
G01 X23.0581 Y14.8469
G01 X23.0484 Y14.8414
G01 X23.0357 Y14.8359
G01 X22.9581 Y14.8125
G01 X22.9443 Y14.8100
G01 X22.9302 Y14.8091
G01 X22.9190 Y14.8098
G01 X22.9051 Y14.8121
G01 X22.8271 Y14.8343
G01 X22.8166 Y14.8385
G01 X22.8042 Y14.8451
G01 X22.7949 Y14.8514
G01 X22.7842 Y14.8606
G01 X22.7784 Y14.8668
G01 X22.7322 Y14.9192
G01 X22.7239 Y14.9298
G01 X22.7196 Y14.9367
G01 X22.7157 Y14.9438
G01 X22.6916 Y14.9956
G01 X22.5725 Y15.1657
G01 X22.4257 Y15.3125
G01 X22.2556 Y15.4316
G01 X22.0674 Y15.5193
G01 X22.0234 Y15.5311
G01 X22.0234 Y15.2375
G01 X22.0906 Y15.2055
G01 X22.1628 Y15.1624
G01 X22.1720 Y15.1563
G01 X22.2351 Y15.1095
G01 X22.2437 Y15.1024
G01 X22.3059 Y15.0459
G01 X22.3624 Y14.9837
G01 X22.3695 Y14.9751
G01 X22.4195 Y14.9075
G01 X22.4655 Y14.8306
G01 X22.5039 Y14.7495
G01 X22.5323 Y14.6704
G01 X22.5348 Y14.6625
G01 X22.5558 Y14.5782
G01 X22.5683 Y14.4951
G01 X22.5694 Y14.4840
G01 X22.5734 Y14.4028
G01 X22.5734 Y13.5000
G01 X22.5694 Y13.4160
G01 X22.5683 Y13.4049
G01 X22.5558 Y13.3218
G01 X22.5341 Y13.2349
G01 X22.5039 Y13.1505
G01 X22.4680 Y13.0744
G01 X22.4628 Y13.0646
G01 X22.4195 Y12.9925
G01 X22.3661 Y12.9205
G01 X22.3097 Y12.8582
G01 X22.3018 Y12.8503
G01 X22.2395 Y12.7939
G01 X22.1720 Y12.7437
G01 X22.1628 Y12.7376
G01 X22.0906 Y12.6945
G01 X22.0234 Y12.6625
G01 X22.0234 Y12.3689
G01 X22.0674 Y12.3807
G01 X22.2556 Y12.4684
G01 X22.4257 Y12.5875
G01 X22.5725 Y12.7344
G01 X22.6916 Y12.9044
G01 X22.7158 Y12.9564
G01 X22.7199 Y12.9639
G01 X22.7246 Y12.9711
G01 X22.7316 Y12.9801
G01 X22.7762 Y13.0315
G01 X22.7818 Y13.0376
G01 X22.7923 Y13.0468
G01 X22.8013 Y13.0531
G01 X22.8110 Y13.0586
G01 X22.8212 Y13.0631
G01 X22.8291 Y13.0658
G01 X22.8986 Y13.0868
G01 X22.9096 Y13.0892
G01 X22.9208 Y13.0906
G01 X22.9293 Y13.0909
G01 X22.9377 Y13.0905
G01 X22.9461 Y13.0895
G01 X22.9544 Y13.0879
G01 X23.0324 Y13.0657
G01 X23.0429 Y13.0615
G01 X23.0553 Y13.0549
G01 X23.0668 Y13.0468
G01 X23.0752 Y13.0394
G01 X23.0810 Y13.0332
G01 X23.1272 Y12.9808
G01 X23.1355 Y12.9702
G01 X23.1399 Y12.9633
G01 X23.1437 Y12.9562
G01 X23.1680 Y12.9042
G01 X23.2872 Y12.7340
G01 X23.4340 Y12.5872
G01 X23.6042 Y12.4680
G01 X23.7924 Y12.3802
G01 X23.9931 Y12.3265
G01 X24.2000 Y12.3084
G01 X24.4069 Y12.3265
G01 X24.6076 Y12.3802
G01 X24.7958 Y12.4680
G01 X24.9660 Y12.5872
G01 X25.1128 Y12.7340
G01 X25.2320 Y12.9042
G01 X25.3198 Y13.0924
G01 X25.3735 Y13.2931
G01 X25.3871 Y13.4482
G01 X25.3871 Y14.1378
G01 X25.3877 Y14.1499
G01 X25.3918 Y14.1845
G01 X25.3943 Y14.1953
G01 X25.3990 Y14.2085
G01 X25.4038 Y14.2185
G01 X25.4373 Y14.2798
G01 X25.4414 Y14.2868
G01 X25.4477 Y14.2956
G01 X25.4566 Y14.3056
G01 X29.6444 Y18.4934
G01 X29.6511 Y18.4995
G01 X29.6762 Y18.5198
G01 X29.6854 Y18.5262
G01 X29.6951 Y18.5316
G01 X29.7027 Y18.5350
G01 X29.7106 Y18.5378
G01 X29.7829 Y18.5590
G01 X29.7934 Y18.5613
G01 X29.8068 Y18.5628
G01 X30.0788 Y18.5628
G01 X30.0871 Y18.5621
G01 X30.0952 Y18.5608
G01 X30.1422 Y18.5515
G01 X30.1528 Y18.5489
G01 X30.1605 Y18.5463
G01 X30.1705 Y18.5419
G01 X30.1777 Y18.5381
G01 X30.1846 Y18.5337
G01 X30.1911 Y18.5288
G01 X30.2457 Y18.4852
G01 X30.2519 Y18.4799
G01 X30.2594 Y18.4722
G01 X30.2646 Y18.4660
G01 X30.2872 Y18.4340
G01 X30.4340 Y18.2872
G01 X30.6042 Y18.1680
G01 X30.7924 Y18.0802
G01 X30.9931 Y18.0265
G01 X31.2000 Y18.0084
G01 X31.4069 Y18.0265
G01 X31.6076 Y18.0802
G01 X31.7958 Y18.1680
G01 X31.9660 Y18.2872
G01 X32.1128 Y18.4340
G01 X32.2320 Y18.6042
G01 X32.2851 Y18.7181
G01 X32.2890 Y18.7258
G01 X32.2935 Y18.7331
G01 X32.3022 Y18.7445
G01 X32.3504 Y18.7999
G01 X32.3606 Y18.8094
G01 X32.3719 Y18.8175
G01 X32.3841 Y18.8242
G01 X32.3970 Y18.8293
G01 X32.4665 Y18.8503
G01 X32.4747 Y18.8525
G01 X32.4858 Y18.8544
G01 X32.4942 Y18.8551
G01 X32.5054 Y18.8550
G01 X32.5138 Y18.8543
G01 X32.5222 Y18.8529
G01 X32.5304 Y18.8508
G01 X32.5976 Y18.8317
G01 X32.6082 Y18.8281
G01 X32.6185 Y18.8234
G01 X32.6306 Y18.8162
G01 X32.6395 Y18.8094
G01 X32.6497 Y18.7997
G01 X32.6995 Y18.7431
G01 X32.7076 Y18.7323
G01 X32.7118 Y18.7253
G01 X32.7154 Y18.7181
G01 X32.7684 Y18.6044
G01 X32.8875 Y18.4344
G01 X33.0344 Y18.2875
G01 X33.2044 Y18.1684
G01 X33.3926 Y18.0807
G01 X33.4366 Y18.0689
G01 X33.4366 Y18.3625
G01 X33.3694 Y18.3945
G01 X33.2972 Y18.4376
G01 X33.2880 Y18.4437
G01 X33.2205 Y18.4939
G01 X33.1582 Y18.5503
G01 X33.1503 Y18.5582
G01 X33.0939 Y18.6205
G01 X33.0405 Y18.6925
G01 X32.9972 Y18.7646
G01 X32.9920 Y18.7744
G01 X32.9561 Y18.8505
G01 X32.9259 Y18.9349
G01 X32.9042 Y19.0218
G01 X32.8917 Y19.1049
G01 X32.8906 Y19.1160
G01 X32.8867 Y19.1944
G01 X32.8867 Y19.2056
G01 X32.8910 Y19.2895
G01 X32.9032 Y19.3727
G01 X32.9054 Y19.3836
G01 X32.9244 Y19.4598
G01 X32.9277 Y19.4704
G01 X32.9561 Y19.5495
G01 X32.9945 Y19.6306
G01 X33.0405 Y19.7075
G01 X33.0905 Y19.7751
G01 X33.0976 Y19.7837
G01 X33.1503 Y19.8418
G01 X33.1582 Y19.8497
G01 X33.2205 Y19.9061
G01 X33.2925 Y19.9595
G01 X33.3646 Y20.0028
G01 X33.3744 Y20.0080
G01 X33.4505 Y20.0439
G01 X33.5322 Y20.0732
G01 X33.5402 Y20.0756
G01 X33.6218 Y20.0958
G01 X33.7049 Y20.1083
G01 X33.7160 Y20.1094
G01 X33.7944 Y20.1133
G01 X33.8056 Y20.1133
G01 X33.8895 Y20.1090
G01 X33.9782 Y20.0958
G01 X34.0651 Y20.0741
G01 X34.1444 Y20.0459
G01 X34.1546 Y20.0416
G01 X34.2306 Y20.0055
G01 X34.3075 Y19.9595
G01 X34.3795 Y19.9061
G01 X34.4459 Y19.8459
G01 X34.5061 Y19.7795
G01 X34.5595 Y19.7075
G01 X34.6055 Y19.6306
G01 X34.6375 Y19.5634
G01 X34.9311 Y19.5634
G01 X34.9193 Y19.6074
G01 X34.8316 Y19.7955
G01 X34.7106 Y19.9681
G01 X34.7027 Y19.9778
G01 X34.6966 Y19.9872
G01 X34.6915 Y19.9972
G01 X34.6602 Y20.0659
G01 X34.6574 Y20.0739
G01 X34.6552 Y20.0820
G01 X34.6532 Y20.0931
G01 X34.6524 Y20.1015
G01 X34.6522 Y20.1100
G01 X34.6530 Y20.1212
G01 X34.6633 Y20.1932
G01 X34.6662 Y20.2069
G01 X34.6707 Y20.2202
G01 X34.6742 Y20.2279
G01 X34.6783 Y20.2353
G01 X34.6863 Y20.2469
G01 X34.7356 Y20.3041
G01 X34.7455 Y20.3141
G01 X34.7565 Y20.3229
G01 X34.7660 Y20.3288
G01 X34.7787 Y20.3349
G01 X34.7894 Y20.3386
G01 X34.8590 Y20.3590
G01 X34.8695 Y20.3613
G01 X34.8802 Y20.3626
G01 X34.8883 Y20.3629
G01 X45.4110 Y20.3629
G01 X45.4294 Y20.3622
G01 X45.4433 Y20.3601
G01 X45.4568 Y20.3564
G01 X45.5275 Y20.3300
G01 X45.5377 Y20.3253
G01 X45.5498 Y20.3180
G01 X45.5608 Y20.3093
G01 X45.5669 Y20.3034
G01 X45.5726 Y20.2971
G01 X45.6179 Y20.2368
G01 X45.6256 Y20.2250
G01 X45.6307 Y20.2150
G01 X45.6356 Y20.2018
G01 X45.6384 Y20.1909
G01 X45.6402 Y20.1769
G01 X45.6452 Y20.1072
G01 X45.6455 Y20.0988
G01 X45.6452 Y20.0903
G01 X45.6442 Y20.0820
G01 X45.6420 Y20.0709
G01 X45.6395 Y20.0628
G01 X45.6365 Y20.0549
G01 X45.6316 Y20.0448
G01 X45.6106 Y20.0063
G01 X45.6054 Y19.9937
G01 X45.6001 Y19.9839
G01 X45.4680 Y19.7958
G01 X45.3802 Y19.6076
G01 X45.3265 Y19.4069
G01 X45.3084 Y19.2000
G01 X45.3265 Y18.9931
G01 X45.3802 Y18.7924
G01 X45.4680 Y18.6042
G01 X45.5872 Y18.4340
G01 X45.7340 Y18.2872
G01 X45.7639 Y18.2662
G01 X45.7724 Y18.2592
G01 X45.7784 Y18.2535
G01 X45.8116 Y18.2190
G01 X45.8204 Y18.2086
G01 X45.8265 Y18.1996
G01 X45.8305 Y18.1925
G01 X45.8340 Y18.1851
G01 X45.8378 Y18.1749
G01 X45.8590 Y18.1027
G01 X45.8613 Y18.0921
G01 X45.8626 Y18.0814
G01 X45.8629 Y18.0733
G01 X45.8629 Y15.1109
G01 X45.8608 Y15.0374
G01 X45.8614 Y15.0320
G01 X45.8783 Y14.9605
G01 X45.8943 Y14.8829
G01 X45.8984 Y14.8654
G01 X45.9001 Y14.8542
G01 X45.9008 Y14.8429
G01 X45.9005 Y14.8344
G01 X45.8996 Y14.8260
G01 X45.8897 Y14.7568
G01 X45.8875 Y14.7458
G01 X45.8843 Y14.7350
G01 X45.8788 Y14.7221
G01 X45.8732 Y14.7123
G01 X45.8650 Y14.7009
G01 X45.8136 Y14.6418
G01 X45.8033 Y14.6322
G01 X45.7965 Y14.6271
G01 X45.7894 Y14.6226
G01 X45.7794 Y14.6173
G01 X45.7663 Y14.6122
G01 X45.6966 Y14.5917
G01 X45.6835 Y14.5887
G01 X45.6754 Y14.5876
G01 X45.6673 Y14.5871
G01 X42.5610 Y14.5871
G01 X42.5516 Y14.5875
G01 X42.5310 Y14.5892
G01 X42.5200 Y14.5907
G01 X42.5064 Y14.5940
G01 X42.4960 Y14.5979
G01 X42.4230 Y14.6333
G01 X42.4111 Y14.6409
G01 X42.4024 Y14.6479
G01 X42.3943 Y14.6558
G01 X42.3871 Y14.6644
G01 X42.3808 Y14.6737
G01 X42.3444 Y14.7334
G01 X42.3381 Y14.7453
G01 X42.3350 Y14.7528
G01 X42.3324 Y14.7605
G01 X42.3198 Y14.8076
G01 X42.2320 Y14.9958
G01 X42.1128 Y15.1660
G01 X41.9660 Y15.3128
G01 X41.7958 Y15.4320
G01 X41.6076 Y15.5198
G01 X41.4069 Y15.5735
G01 X41.2000 Y15.5916
G01 X40.9931 Y15.5735
G01 X40.7924 Y15.5198
G01 X40.6042 Y15.4320
G01 X40.4340 Y15.3128
G01 X40.2872 Y15.1660
G01 X40.1680 Y14.9958
G01 X40.1436 Y14.9436
G01 X40.1395 Y14.9361
G01 X40.1349 Y14.9289
G01 X40.1278 Y14.9199
G01 X40.0833 Y14.8685
G01 X40.0736 Y14.8586
G01 X40.0627 Y14.8499
G01 X40.0533 Y14.8440
G01 X40.0434 Y14.8390
G01 X40.0304 Y14.8342
G01 X39.9635 Y14.8140
G01 X39.9554 Y14.8119
G01 X39.9443 Y14.8100
G01 X39.9358 Y14.8093
G01 X39.9246 Y14.8093
G01 X39.9162 Y14.8101
G01 X39.9078 Y14.8115
G01 X39.8996 Y14.8135
G01 X39.8324 Y14.8326
G01 X39.8218 Y14.8363
G01 X39.8115 Y14.8409
G01 X39.7994 Y14.8481
G01 X39.7905 Y14.8549
G01 X39.7822 Y14.8626
G01 X39.7322 Y14.9192
G01 X39.7239 Y14.9298
G01 X39.7196 Y14.9367
G01 X39.7157 Y14.9438
G01 X39.6916 Y14.9956
G01 X39.5725 Y15.1657
G01 X39.4257 Y15.3125
G01 X39.2556 Y15.4316
G01 X39.0674 Y15.5193
G01 X39.0234 Y15.5311
G01 X39.0234 Y15.2375
G01 X39.0906 Y15.2055
G01 X39.1628 Y15.1624
G01 X39.1720 Y15.1563
G01 X39.2395 Y15.1061
G01 X39.3018 Y15.0497
G01 X39.3097 Y15.0418
G01 X39.3661 Y14.9795
G01 X39.4195 Y14.9075
G01 X39.4628 Y14.8354
G01 X39.4680 Y14.8256
G01 X39.5039 Y14.7495
G01 X39.5341 Y14.6651
G01 X39.5558 Y14.5782
G01 X39.5683 Y14.4951
G01 X39.5694 Y14.4840
G01 X39.5734 Y14.4000
G01 X39.5734 Y13.4972
G01 X39.5694 Y13.4160
G01 X39.5683 Y13.4049
G01 X39.5558 Y13.3218
G01 X39.5348 Y13.2375
G01 X39.5323 Y13.2296
G01 X39.5039 Y13.1505
G01 X39.4655 Y13.0694
G01 X39.4195 Y12.9925
G01 X39.3695 Y12.9249
G01 X39.3624 Y12.9163
G01 X39.3059 Y12.8541
G01 X39.2437 Y12.7976
G01 X39.2351 Y12.7905
G01 X39.1720 Y12.7437
G01 X39.1628 Y12.7376
G01 X39.0906 Y12.6945
G01 X39.0234 Y12.6625
G01 X39.0234 Y12.3689
G01 X39.0674 Y12.3807
G01 X39.2556 Y12.4684
G01 X39.4257 Y12.5875
G01 X39.5725 Y12.7344
G01 X39.6916 Y12.9044
G01 X39.7158 Y12.9564
G01 X39.7199 Y12.9639
G01 X39.7246 Y12.9711
G01 X39.7316 Y12.9801
G01 X39.7799 Y13.0356
G01 X39.7880 Y13.0433
G01 X39.7990 Y13.0516
G01 X39.8085 Y13.0573
G01 X39.8186 Y13.0621
G01 X39.8291 Y13.0658
G01 X39.8959 Y13.0860
G01 X39.9069 Y13.0887
G01 X39.9152 Y13.0900
G01 X39.9236 Y13.0907
G01 X39.9321 Y13.0908
G01 X39.9405 Y13.0902
G01 X39.9516 Y13.0885
G01 X39.9598 Y13.0865
G01 X40.0297 Y13.0666
G01 X40.0403 Y13.0627
G01 X40.0504 Y13.0578
G01 X40.0623 Y13.0502
G01 X40.0711 Y13.0432
G01 X40.0810 Y13.0332
G01 X40.1272 Y12.9808
G01 X40.1355 Y12.9702
G01 X40.1399 Y12.9633
G01 X40.1437 Y12.9562
G01 X40.1680 Y12.9042
G01 X40.2872 Y12.7340
G01 X40.4340 Y12.5872
G01 X40.6042 Y12.4680
G01 X40.7924 Y12.3802
G01 X40.9931 Y12.3265
G01 X41.2000 Y12.3084
G01 X41.4069 Y12.3265
G01 X41.6076 Y12.3802
G01 X41.7958 Y12.4680
G01 X41.9660 Y12.5872
G01 X42.1128 Y12.7340
G01 X42.2320 Y12.9042
G01 X42.3198 Y13.0924
G01 X42.3326 Y13.1400
G01 X42.3425 Y13.1680
G01 X42.3458 Y13.1757
G01 X42.3496 Y13.1831
G01 X42.3541 Y13.1902
G01 X42.3590 Y13.1970
G01 X42.4121 Y13.2582
G01 X42.4224 Y13.2678
G01 X42.4338 Y13.2760
G01 X42.4462 Y13.2827
G01 X42.4593 Y13.2878
G01 X42.5291 Y13.3083
G01 X42.5422 Y13.3113
G01 X42.5502 Y13.3124
G01 X42.5610 Y13.3129
G01 X47.2878 Y13.3129
G01 X47.2999 Y13.3123
G01 X47.3318 Y13.3087
G01 X47.3427 Y13.3064
G01 X47.3559 Y13.3021
G01 X47.3685 Y13.2962
G01 X47.4322 Y13.2614
G01 X47.4434 Y13.2540
G01 X47.4497 Y13.2489
G01 X47.4556 Y13.2434
G01 X48.8934 Y11.8056
G01 X48.9015 Y11.7966
G01 X48.9198 Y11.7738
G01 X48.9247 Y11.7670
G01 X48.9290 Y11.7598
G01 X48.9328 Y11.7524
G01 X48.9360 Y11.7447
G01 X48.9386 Y11.7368
G01 X48.9597 Y11.6645
G01 X48.9621 Y11.6512
G01 X48.9629 Y11.6378
G01 X48.9629 Y8.1059
G01 X48.9608 Y8.0324
G01 X48.9614 Y8.0270
G01 X48.9783 Y7.9555
G01 X48.9925 Y7.8867
G01 X48.9943 Y7.8816
G01 X49.0258 Y7.8188
G01 X49.0569 Y7.7522
G01 X49.0597 Y7.7478
G01 X49.1049 Y7.6938
G01 X49.1233 Y7.6707
G01 X49.1331 Y7.6602
G01 X49.1598 Y7.6284
G01 X49.1728 Y7.6186
G01 X49.1945 Y7.5995
G01 X51.6034 Y5.1906
G01 X51.6115 Y5.1816
G01 X51.6331 Y5.1543
G01 X51.6376 Y5.1472
G01 X51.6416 Y5.1399
G01 X51.6450 Y5.1323
G01 X51.6478 Y5.1244
G01 X51.6690 Y5.0521
G01 X51.6717 Y5.0389
G01 X51.6728 Y5.0282
G01 X51.6729 Y3.9932
G01 X51.6771 Y3.9538
G01 X51.7168 Y3.8476
G01 X51.7835 Y3.7585
G01 X51.8726 Y3.6918
G01 X51.9788 Y3.6521
G01 X52.0182 Y3.6479
G01 X53.7018 Y3.6479
G01 X53.7412 Y3.6521
G01 X53.8474 Y3.6918
G01 X53.9365 Y3.7585
G01 X54.0032 Y3.8476
G01 X54.0429 Y3.9538
G01 X54.0471 Y3.9932
G01 X54.0471 Y5.3296
G01 X54.0480 Y5.3435
G01 X54.0530 Y5.3817
G01 X54.0556 Y5.3923
G01 X54.0603 Y5.4051
G01 X54.0665 Y5.4172
G01 X54.1019 Y5.4775
G01 X54.1064 Y5.4846
G01 X54.1115 Y5.4913
G01 X54.1190 Y5.4997
G01 X54.1252 Y5.5055
G01 X54.1340 Y5.5125
G01 X54.1411 Y5.5171
G01 X54.1485 Y5.5212
G01 X54.2108 Y5.5527
G01 X54.2211 Y5.5573
G01 X54.2318 Y5.5608
G01 X54.2456 Y5.5637
G01 X54.2596 Y5.5649
G01 X54.2709 Y5.5646
G01 X54.3432 Y5.5571
G01 X54.3515 Y5.5559
G01 X54.3625 Y5.5534
G01 X54.3705 Y5.5508
G01 X54.3784 Y5.5476
G01 X54.3884 Y5.5424
G01 X54.3955 Y5.5379
G01 X54.4023 Y5.5329
G01 X54.4569 Y5.4893
G01 X54.4650 Y5.4821
G01 X54.4706 Y5.4763
G01 X54.4758 Y5.4701
G01 X54.4872 Y5.4540
G01 X54.6340 Y5.3072
G01 X54.8042 Y5.1880
G01 X54.9924 Y5.1002
G01 X55.1931 Y5.0465
G01 X55.4000 Y5.0284
G01 X55.6069 Y5.0465
G01 X55.8076 Y5.1002
G01 X55.9958 Y5.1880
G01 X56.1660 Y5.3072
G01 X56.3128 Y5.4540
G01 X56.4320 Y5.6242
G01 X56.5198 Y5.8124
G01 X56.5735 Y6.0131
G01 X56.5916 Y6.2200
G01 X56.5735 Y6.4269
G01 X56.5198 Y6.6276
G01 X56.4320 Y6.8158
G01 X56.3128 Y6.9860
G01 X56.1660 Y7.1328
G01 X55.9958 Y7.2520
G01 X55.8076 Y7.3398
G01 X55.6735 Y7.3757
G01 X55.6658 Y7.3781
G01 X55.6558 Y7.3821
G01 X55.6158 Y7.4004
G01 X55.6082 Y7.4044
G01 X55.5987 Y7.4106
G01 X55.5877 Y7.4197
G01 X55.5780 Y7.4301
G01 X55.5318 Y7.4862
G01 X55.5238 Y7.4978
G01 X55.5185 Y7.5077
G01 X55.5132 Y7.5208
G01 X55.5109 Y7.5289
G01 X55.5092 Y7.5372
G01 X55.5001 Y7.6121
G01 X55.4993 Y7.6261
G01 X55.4996 Y7.6346
G01 X55.5011 Y7.6458
G01 X55.5029 Y7.6540
G01 X55.5063 Y7.6648
G01 X55.5107 Y7.6751
G01 X55.5425 Y7.7405
G01 X55.5497 Y7.7526
G01 X55.5584 Y7.7636
G01 X55.5683 Y7.7736
G01 X55.5794 Y7.7822
G01 X55.6438 Y7.8216
G01 X55.6509 Y7.8256
G01 X55.6582 Y7.8290
G01 X55.6658 Y7.8319
G01 X55.6735 Y7.8343
G01 X55.8076 Y7.8702
G01 X55.9958 Y7.9580
G01 X56.1660 Y8.0772
G01 X56.3128 Y8.2240
G01 X56.4320 Y8.3942
G01 X56.5198 Y8.5824
G01 X56.5735 Y8.7831
G01 X56.5916 Y8.9900
G01 X56.5735 Y9.1969
G01 X56.5198 Y9.3976
G01 X56.4320 Y9.5858
G01 X56.3233 Y9.7411
G01 X56.3188 Y9.7485
G01 X56.3028 Y9.7788
G01 X56.2972 Y9.7913
G01 X56.2931 Y9.8045
G01 X56.2906 Y9.8180
G01 X56.2849 Y9.8960
G01 X56.2850 Y9.9072
G01 X56.2861 Y9.9184
G01 X56.2884 Y9.9295
G01 X56.2917 Y9.9402
G01 X56.2974 Y9.9531
G01 X56.3335 Y10.0193
G01 X56.3409 Y10.0305
G01 X56.3460 Y10.0368
G01 X56.3515 Y10.0428
G01 X58.9428 Y12.6340
G01 X58.9962 Y12.6845
G01 X58.9997 Y12.6887
G01 X59.0383 Y12.7513
G01 X59.0775 Y12.8112
G01 X59.0792 Y12.8148
G01 X59.1024 Y12.8846
G01 X59.1264 Y12.9506
G01 X59.1276 Y12.9559
G01 X59.1337 Y13.0258
G01 X59.1371 Y13.0551
G01 X59.1376 Y13.0696
G01 X59.1412 Y13.1109
G01 X59.1389 Y13.1270
G01 X59.1371 Y13.1559
G01 X59.1371 Y27.0369
G01 X59.1392 Y27.1103
G01 X59.1386 Y27.1158
G01 X59.1217 Y27.1873
G01 X59.1071 Y27.2574
G01 X59.1057 Y27.2612
G01 X59.0728 Y27.3269
G01 X59.0431 Y27.3905
G01 X59.0402 Y27.3951
G01 X58.9951 Y27.4489
G01 X58.9767 Y27.4720
G01 X58.9668 Y27.4826
G01 X58.9402 Y27.5143
G01 X58.9272 Y27.5241
G01 X58.9055 Y27.5433
G01 X56.3760 Y30.0728
G01 X56.3439 Y30.1069
G01 X56.3192 Y30.1397
G01 X56.3147 Y30.1468
G01 X56.3108 Y30.1543
G01 X56.3074 Y30.1621
G01 X56.3046 Y30.1701
G01 X56.2849 Y30.2488
G01 X56.2830 Y30.2627
G01 X56.2829 Y30.2768
G01 X56.2845 Y30.2908
G01 X56.2878 Y30.3045
G01 X56.3119 Y30.3759
G01 X56.3149 Y30.3834
G01 X56.3185 Y30.3907
G01 X56.3255 Y30.4022
G01 X56.4320 Y30.5542
G01 X56.5198 Y30.7424
G01 X56.5735 Y30.9431
G01 X56.5916 Y31.1500
G01 X56.5735 Y31.3569
G01 X56.5198 Y31.5576
G01 X56.4320 Y31.7458
G01 X56.3128 Y31.9160
G01 X56.1660 Y32.0628
G01 X55.9958 Y32.1820
G01 X55.8076 Y32.2698
G01 X55.6683 Y32.3072
G01 X55.6582 Y32.3110
G01 X55.6183 Y32.3292
G01 X55.6058 Y32.3359
G01 X55.5987 Y32.3406
G01 X55.5920 Y32.3459
G01 X55.5817 Y32.3558
G01 X55.5335 Y32.4140
G01 X55.5284 Y32.4207
G01 X55.5224 Y32.4302
G01 X55.5162 Y32.4428
G01 X55.5116 Y32.4562
G01 X55.5087 Y32.4699
G01 X55.5001 Y32.5421
G01 X55.4994 Y32.5505
G01 X55.4993 Y32.5590
G01 X55.4999 Y32.5674
G01 X55.5011 Y32.5758
G01 X55.5029 Y32.5840
G01 X55.5063 Y32.5948
G01 X55.5095 Y32.6026
G01 X55.5438 Y32.6730
G01 X55.5497 Y32.6826
G01 X55.5547 Y32.6893
G01 X55.5622 Y32.6978
G01 X55.5705 Y32.7054
G01 X55.5771 Y32.7106
G01 X55.5842 Y32.7152
G01 X55.6462 Y32.7530
G01 X55.6582 Y32.7590
G01 X55.6658 Y32.7619
G01 X55.6735 Y32.7643
G01 X55.8076 Y32.8002
G01 X55.9958 Y32.8880
G01 X56.1660 Y33.0072
G01 X56.3128 Y33.1540
G01 X56.4320 Y33.3242
G01 X56.5198 Y33.5124
G01 X56.5735 Y33.7131
G01 X56.5916 Y33.9200
G01 X56.5735 Y34.1269
G01 X56.5198 Y34.3276
G01 X56.4320 Y34.5158
G01 X56.3128 Y34.6860
G01 X56.1660 Y34.8328
G01 X55.9958 Y34.9520
G01 X55.8076 Y35.0398
G01 X55.6735 Y35.0757
G01 X55.6658 Y35.0781
G01 X55.6558 Y35.0821
G01 X55.6158 Y35.1004
G01 X55.6058 Y35.1059
G01 X55.5964 Y35.1123
G01 X55.5877 Y35.1197
G01 X55.5798 Y35.1279
G01 X55.5335 Y35.1840
G01 X55.5253 Y35.1954
G01 X55.5185 Y35.2077
G01 X55.5151 Y35.2155
G01 X55.5124 Y35.2235
G01 X55.5092 Y35.2372
G01 X55.5001 Y35.3121
G01 X55.4994 Y35.3205
G01 X55.4996 Y35.3346
G01 X55.5016 Y35.3485
G01 X55.5053 Y35.3621
G01 X55.5107 Y35.3751
G01 X55.5412 Y35.4380
G01 X55.5466 Y35.4478
G01 X55.5530 Y35.4571
G01 X55.5602 Y35.4657
G01 X55.5662 Y35.4717
G01 X55.5749 Y35.4789
G01 X55.5842 Y35.4852
G01 X55.6438 Y35.5216
G01 X55.6509 Y35.5256
G01 X55.6582 Y35.5290
G01 X55.6658 Y35.5319
G01 X55.6735 Y35.5343
G01 X55.8076 Y35.5702
G01 X55.9958 Y35.6580
G01 X56.1660 Y35.7772
G01 X56.3128 Y35.9240
G01 X56.4320 Y36.0942
G01 X56.5198 Y36.2824
G01 X56.5735 Y36.4831
G01 X56.5916 Y36.6900
G01 X56.5735 Y36.8969
G01 X56.5198 Y37.0976
G01 X56.4320 Y37.2858
G01 X56.3128 Y37.4560
G01 X56.1660 Y37.6028
G01 X55.9958 Y37.7220
G01 X55.8076 Y37.8098
G01 X55.6735 Y37.8457
G01 X55.6658 Y37.8481
G01 X55.6558 Y37.8521
G01 X55.6158 Y37.8704
G01 X55.6058 Y37.8759
G01 X55.5964 Y37.8823
G01 X55.5877 Y37.8897
G01 X55.5798 Y37.8979
G01 X55.5335 Y37.9540
G01 X55.5253 Y37.9654
G01 X55.5185 Y37.9777
G01 X55.5132 Y37.9908
G01 X55.5109 Y37.9989
G01 X55.5092 Y38.0072
G01 X55.5001 Y38.0821
G01 X55.4994 Y38.0905
G01 X55.4996 Y38.1046
G01 X55.5016 Y38.1185
G01 X55.5053 Y38.1321
G01 X55.5107 Y38.1451
G01 X55.5412 Y38.2080
G01 X55.5466 Y38.2178
G01 X55.5530 Y38.2271
G01 X55.5602 Y38.2357
G01 X55.5683 Y38.2436
G01 X55.5749 Y38.2489
G01 X55.5842 Y38.2552
G01 X55.6438 Y38.2916
G01 X55.6509 Y38.2956
G01 X55.6582 Y38.2990
G01 X55.6658 Y38.3019
G01 X55.6735 Y38.3043
G01 X55.8076 Y38.3402
G01 X55.9958 Y38.4280
G01 X56.1660 Y38.5472
G01 X56.3128 Y38.6940
G01 X56.4320 Y38.8642
G01 X56.5198 Y39.0524
G01 X56.5735 Y39.2531
G01 X56.5916 Y39.4600
G01 X56.5735 Y39.6669
G01 X56.5198 Y39.8676
G01 X56.4320 Y40.0558
G01 X56.3128 Y40.2260
G01 X56.1660 Y40.3728
G01 X55.9958 Y40.4920
G01 X55.8076 Y40.5798
G01 X55.6735 Y40.6157
G01 X55.6658 Y40.6181
G01 X55.6558 Y40.6221
G01 X55.6158 Y40.6404
G01 X55.6058 Y40.6459
G01 X55.5964 Y40.6523
G01 X55.5877 Y40.6597
G01 X55.5798 Y40.6679
G01 X55.5335 Y40.7240
G01 X55.5253 Y40.7354
G01 X55.5185 Y40.7477
G01 X55.5132 Y40.7608
G01 X55.5109 Y40.7689
G01 X55.5092 Y40.7772
G01 X55.4995 Y40.8577
G01 X55.4994 Y40.8718
G01 X55.5011 Y40.8858
G01 X55.5044 Y40.8994
G01 X55.5095 Y40.9126
G01 X55.5412 Y40.9780
G01 X55.5466 Y40.9878
G01 X55.5513 Y40.9949
G01 X55.5584 Y41.0036
G01 X55.5662 Y41.0117
G01 X55.5749 Y41.0189
G01 X55.5842 Y41.0252
G01 X55.6438 Y41.0616
G01 X55.6509 Y41.0656
G01 X55.6582 Y41.0690
G01 X55.6658 Y41.0719
G01 X55.6735 Y41.0743
G01 X55.8076 Y41.1102
G01 X55.9958 Y41.1980
G01 X56.1660 Y41.3172
G01 X56.3128 Y41.4640
G01 X56.4320 Y41.6342
G01 X56.5198 Y41.8224
G01 X56.5735 Y42.0231
G01 X56.5916 Y42.2300
G01 X56.5735 Y42.4369
G01 X56.5198 Y42.6376
G01 X56.4320 Y42.8258
G01 X56.3128 Y42.9960
G01 X56.1660 Y43.1428
G01 X55.9958 Y43.2620
G01 X55.8076 Y43.3498
G01 X55.6735 Y43.3857
G01 X55.6658 Y43.3881
G01 X55.6558 Y43.3921
G01 X55.6158 Y43.4104
G01 X55.6058 Y43.4159
G01 X55.5964 Y43.4223
G01 X55.5877 Y43.4297
G01 X55.5798 Y43.4379
G01 X55.5335 Y43.4940
G01 X55.5253 Y43.5054
G01 X55.5185 Y43.5177
G01 X55.5132 Y43.5308
G01 X55.5109 Y43.5389
G01 X55.5092 Y43.5472
G01 X55.4998 Y43.6249
G01 X55.4993 Y43.6390
G01 X55.4999 Y43.6474
G01 X55.5011 Y43.6558
G01 X55.5044 Y43.6694
G01 X55.5095 Y43.6826
G01 X55.5412 Y43.7480
G01 X55.5466 Y43.7578
G01 X55.5530 Y43.7671
G01 X55.5602 Y43.7757
G01 X55.5662 Y43.7817
G01 X55.5749 Y43.7889
G01 X55.5842 Y43.7952
G01 X55.6438 Y43.8316
G01 X55.6509 Y43.8356
G01 X55.6582 Y43.8390
G01 X55.6658 Y43.8419
G01 X55.6735 Y43.8443
G01 X55.8076 Y43.8802
G01 X55.9958 Y43.9680
G01 X56.1660 Y44.0872
G01 X56.3128 Y44.2340
G01 X56.4320 Y44.4042
G01 X56.5198 Y44.5924
G01 X56.5735 Y44.7931
G01 X56.5916 Y45.0000
G01 X56.5735 Y45.2069
G01 X56.5198 Y45.4076
G01 X56.4320 Y45.5958
G01 X56.3128 Y45.7660
G01 X56.1660 Y45.9128
G01 X55.9958 Y46.0320
G01 X55.8076 Y46.1198
G01 X55.6735 Y46.1557
G01 X55.6658 Y46.1581
G01 X55.6558 Y46.1621
G01 X55.6158 Y46.1804
G01 X55.6058 Y46.1859
G01 X55.5964 Y46.1923
G01 X55.5877 Y46.1997
G01 X55.5798 Y46.2079
G01 X55.5335 Y46.2640
G01 X55.5253 Y46.2754
G01 X55.5185 Y46.2877
G01 X55.5151 Y46.2955
G01 X55.5124 Y46.3035
G01 X55.5092 Y46.3172
G01 X55.5001 Y46.3921
G01 X55.4994 Y46.4005
G01 X55.4993 Y46.4090
G01 X55.5006 Y46.4230
G01 X55.5036 Y46.4367
G01 X55.5063 Y46.4448
G01 X55.5095 Y46.4526
G01 X55.5412 Y46.5180
G01 X55.5466 Y46.5278
G01 X55.5530 Y46.5371
G01 X55.5584 Y46.5436
G01 X55.5662 Y46.5517
G01 X55.5749 Y46.5589
G01 X55.5842 Y46.5652
G01 X55.6438 Y46.6016
G01 X55.6509 Y46.6056
G01 X55.6582 Y46.6090
G01 X55.6658 Y46.6119
G01 X55.6735 Y46.6143
G01 X55.8076 Y46.6502
G01 X55.9958 Y46.7380
G01 X56.1660 Y46.8572
G01 X56.3128 Y47.0040
G01 X56.4320 Y47.1742
G01 X56.5198 Y47.3624
G01 X56.5735 Y47.5631
G01 X56.5916 Y47.7700
G01 X56.5735 Y47.9769
G01 X56.5198 Y48.1776
G01 X56.4320 Y48.3658
G01 X56.3128 Y48.5360
G01 X56.1660 Y48.6828
G01 X55.9958 Y48.8020
G01 X55.8076 Y48.8898
G01 X55.6735 Y48.9257
G01 X55.6658 Y48.9281
G01 X55.6558 Y48.9321
G01 X55.6158 Y48.9504
G01 X55.6082 Y48.9544
G01 X55.6010 Y48.9590
G01 X55.5898 Y48.9678
G01 X55.5798 Y48.9779
G01 X55.5335 Y49.0340
G01 X55.5284 Y49.0407
G01 X55.5224 Y49.0502
G01 X55.5162 Y49.0628
G01 X55.5124 Y49.0735
G01 X55.5092 Y49.0872
G01 X55.5001 Y49.1621
G01 X55.4994 Y49.1705
G01 X55.4993 Y49.1790
G01 X55.4999 Y49.1874
G01 X55.5011 Y49.1958
G01 X55.5029 Y49.2040
G01 X55.5053 Y49.2121
G01 X55.5095 Y49.2226
G01 X55.5438 Y49.2930
G01 X55.5481 Y49.3002
G01 X55.5547 Y49.3093
G01 X55.5622 Y49.3178
G01 X55.5705 Y49.3254
G01 X55.5771 Y49.3306
G01 X55.5842 Y49.3352
G01 X55.6462 Y49.3730
G01 X55.6582 Y49.3790
G01 X55.6658 Y49.3819
G01 X55.6735 Y49.3843
G01 X55.8076 Y49.4202
G01 X55.9958 Y49.5080
G01 X56.1660 Y49.6272
G01 X56.3128 Y49.7740
G01 X56.4320 Y49.9442
G01 X56.5198 Y50.1324
G01 X56.5735 Y50.3331
G01 X56.5916 Y50.5400
G01 X56.5735 Y50.7469
G01 X56.5198 Y50.9476
G01 X56.4320 Y51.1358
G01 X56.3128 Y51.3060
G01 X56.1660 Y51.4528
G01 X55.9958 Y51.5720
G01 X55.8076 Y51.6598
G01 X55.6674 Y51.6975
G01 X55.6548 Y51.7023
G01 X55.6174 Y51.7194
G01 X55.6097 Y51.7233
G01 X55.6001 Y51.7293
G01 X55.5932 Y51.7344
G01 X55.5847 Y51.7420
G01 X55.5789 Y51.7482
G01 X55.5291 Y51.8087
G01 X55.5228 Y51.8180
G01 X55.5163 Y51.8305
G01 X55.5114 Y51.8437
G01 X55.5082 Y51.8574
G01 X55.4991 Y51.9324
G01 X55.4984 Y51.9408
G01 X55.4984 Y51.9492
G01 X55.4989 Y51.9577
G01 X55.5001 Y51.9660
G01 X55.5035 Y51.9797
G01 X55.5074 Y51.9902
G01 X55.5415 Y52.0607
G01 X55.5472 Y52.0705
G01 X55.5520 Y52.0774
G01 X55.5574 Y52.0839
G01 X55.5632 Y52.0900
G01 X55.5717 Y52.0974
G01 X55.5808 Y52.1040
G01 X55.6452 Y52.1432
G01 X55.6573 Y52.1493
G01 X55.6648 Y52.1522
G01 X55.6725 Y52.1546
G01 X55.8074 Y52.1907
G01 X55.9424 Y52.2537
G01 X55.7352 Y52.4609
G01 X55.6651 Y52.4359
G01 X55.5782 Y52.4142
G01 X55.4895 Y52.4010
G01 X55.4000 Y52.3966
G01 X55.3105 Y52.4010
G01 X55.2218 Y52.4142
G01 X55.1349 Y52.4359
G01 X55.0648 Y52.4609
G01 X54.8576 Y52.2537
G01 X54.9926 Y52.1907
G01 X55.1275 Y52.1546
G01 X55.1402 Y52.1503
G01 X55.1877 Y52.1286
G01 X55.1999 Y52.1213
G01 X55.2111 Y52.1125
G01 X55.2173 Y52.1065
G01 X55.2230 Y52.1001
G01 X55.2709 Y52.0418
G01 X55.2757 Y52.0349
G01 X55.2800 Y52.0276
G01 X55.2837 Y52.0200
G01 X55.2877 Y52.0095
G01 X55.2901 Y52.0014
G01 X55.2922 Y51.9903
G01 X55.3009 Y51.9182
G01 X55.3016 Y51.9097
G01 X55.3015 Y51.8985
G01 X55.3003 Y51.8873
G01 X55.2981 Y51.8763
G01 X55.2947 Y51.8655
G01 X55.2903 Y51.8551
G01 X55.2598 Y51.7923
G01 X55.2543 Y51.7824
G01 X55.2462 Y51.7709
G01 X55.2388 Y51.7625
G01 X55.2305 Y51.7549
G01 X55.2215 Y51.7481
G01 X55.1571 Y51.7087
G01 X55.1501 Y51.7047
G01 X55.1427 Y51.7012
G01 X55.1352 Y51.6983
G01 X55.1275 Y51.6959
G01 X54.9924 Y51.6598
G01 X54.8042 Y51.5720
G01 X54.6340 Y51.4528
G01 X54.4872 Y51.3060
G01 X54.3680 Y51.1358
G01 X54.2802 Y50.9476
G01 X54.2265 Y50.7469
G01 X54.2084 Y50.5400
G01 X54.2265 Y50.3331
G01 X54.2802 Y50.1324
G01 X54.3680 Y49.9442
G01 X54.4872 Y49.7740
G01 X54.6340 Y49.6272
G01 X54.8042 Y49.5080
G01 X54.9924 Y49.4202
G01 X55.1265 Y49.3843
G01 X55.1342 Y49.3819
G01 X55.1442 Y49.3779
G01 X55.1842 Y49.3596
G01 X55.1942 Y49.3541
G01 X55.2036 Y49.3477
G01 X55.2123 Y49.3403
G01 X55.2202 Y49.3321
G01 X55.2665 Y49.2760
G01 X55.2747 Y49.2646
G01 X55.2815 Y49.2523
G01 X55.2868 Y49.2392
G01 X55.2891 Y49.2311
G01 X55.2908 Y49.2228
G01 X55.3005 Y49.1423
G01 X55.3006 Y49.1282
G01 X55.2989 Y49.1142
G01 X55.2956 Y49.1006
G01 X55.2905 Y49.0874
G01 X55.2588 Y49.0220
G01 X55.2534 Y49.0122
G01 X55.2487 Y49.0051
G01 X55.2416 Y48.9964
G01 X55.2338 Y48.9883
G01 X55.2251 Y48.9811
G01 X55.2158 Y48.9748
G01 X55.1562 Y48.9384
G01 X55.1491 Y48.9344
G01 X55.1418 Y48.9310
G01 X55.1342 Y48.9281
G01 X55.1265 Y48.9257
G01 X54.9924 Y48.8898
G01 X54.8042 Y48.8020
G01 X54.6340 Y48.6828
G01 X54.4872 Y48.5360
G01 X54.3680 Y48.3658
G01 X54.2802 Y48.1776
G01 X54.2265 Y47.9769
G01 X54.2084 Y47.7700
G01 X54.2265 Y47.5631
G01 X54.2802 Y47.3624
G01 X54.3680 Y47.1742
G01 X54.4872 Y47.0040
G01 X54.6340 Y46.8572
G01 X54.8042 Y46.7380
G01 X54.9924 Y46.6502
G01 X55.1265 Y46.6143
G01 X55.1342 Y46.6119
G01 X55.1442 Y46.6079
G01 X55.1842 Y46.5896
G01 X55.1942 Y46.5841
G01 X55.2036 Y46.5777
G01 X55.2123 Y46.5703
G01 X55.2202 Y46.5621
G01 X55.2665 Y46.5060
G01 X55.2747 Y46.4946
G01 X55.2815 Y46.4823
G01 X55.2868 Y46.4692
G01 X55.2891 Y46.4611
G01 X55.2908 Y46.4528
G01 X55.3002 Y46.3751
G01 X55.3007 Y46.3610
G01 X55.2994 Y46.3470
G01 X55.2964 Y46.3333
G01 X55.2937 Y46.3252
G01 X55.2905 Y46.3174
G01 X55.2588 Y46.2520
G01 X55.2534 Y46.2422
G01 X55.2470 Y46.2329
G01 X55.2398 Y46.2243
G01 X55.2317 Y46.2164
G01 X55.2251 Y46.2111
G01 X55.2158 Y46.2048
G01 X55.1562 Y46.1684
G01 X55.1491 Y46.1644
G01 X55.1418 Y46.1610
G01 X55.1342 Y46.1581
G01 X55.1265 Y46.1557
G01 X54.9924 Y46.1198
G01 X54.8042 Y46.0320
G01 X54.6340 Y45.9128
G01 X54.4872 Y45.7660
G01 X54.3680 Y45.5958
G01 X54.2802 Y45.4076
G01 X54.2265 Y45.2069
G01 X54.2084 Y45.0000
G01 X54.2265 Y44.7931
G01 X54.2802 Y44.5924
G01 X54.3680 Y44.4042
G01 X54.4872 Y44.2340
G01 X54.6340 Y44.0872
G01 X54.8042 Y43.9680
G01 X54.9924 Y43.8802
G01 X55.1265 Y43.8443
G01 X55.1342 Y43.8419
G01 X55.1442 Y43.8379
G01 X55.1868 Y43.8183
G01 X55.1966 Y43.8126
G01 X55.2080 Y43.8041
G01 X55.2143 Y43.7983
G01 X55.2202 Y43.7921
G01 X55.2682 Y43.7338
G01 X55.2762 Y43.7222
G01 X55.2827 Y43.7097
G01 X55.2858 Y43.7019
G01 X55.2884 Y43.6938
G01 X55.2913 Y43.6801
G01 X55.2999 Y43.6079
G01 X55.3007 Y43.5939
G01 X55.3001 Y43.5826
G01 X55.2989 Y43.5742
G01 X55.2964 Y43.5633
G01 X55.2937 Y43.5552
G01 X55.2893 Y43.5449
G01 X55.2575 Y43.4795
G01 X55.2503 Y43.4674
G01 X55.2416 Y43.4564
G01 X55.2338 Y43.4483
G01 X55.2229 Y43.4394
G01 X55.2158 Y43.4348
G01 X55.1562 Y43.3984
G01 X55.1491 Y43.3944
G01 X55.1418 Y43.3910
G01 X55.1342 Y43.3881
G01 X55.1265 Y43.3857
G01 X54.9924 Y43.3498
G01 X54.8042 Y43.2620
G01 X54.6340 Y43.1428
G01 X54.4872 Y42.9960
G01 X54.3680 Y42.8258
G01 X54.2802 Y42.6376
G01 X54.2265 Y42.4369
G01 X54.2084 Y42.2300
G01 X54.2265 Y42.0231
G01 X54.2802 Y41.8224
G01 X54.3680 Y41.6342
G01 X54.4872 Y41.4640
G01 X54.6340 Y41.3172
G01 X54.8042 Y41.1980
G01 X54.9924 Y41.1102
G01 X55.1265 Y41.0743
G01 X55.1342 Y41.0719
G01 X55.1442 Y41.0679
G01 X55.1868 Y41.0483
G01 X55.1966 Y41.0426
G01 X55.2080 Y41.0341
G01 X55.2143 Y41.0283
G01 X55.2202 Y41.0221
G01 X55.2682 Y40.9638
G01 X55.2762 Y40.9522
G01 X55.2827 Y40.9397
G01 X55.2876 Y40.9265
G01 X55.2897 Y40.9184
G01 X55.2913 Y40.9101
G01 X55.2999 Y40.8379
G01 X55.3007 Y40.8239
G01 X55.3001 Y40.8126
G01 X55.2989 Y40.8042
G01 X55.2971 Y40.7960
G01 X55.2937 Y40.7852
G01 X55.2893 Y40.7749
G01 X55.2575 Y40.7095
G01 X55.2503 Y40.6974
G01 X55.2416 Y40.6864
G01 X55.2317 Y40.6764
G01 X55.2206 Y40.6678
G01 X55.1562 Y40.6284
G01 X55.1491 Y40.6244
G01 X55.1418 Y40.6210
G01 X55.1342 Y40.6181
G01 X55.1265 Y40.6157
G01 X54.9924 Y40.5798
